!!!!SEGMENT: pl-stab--27c--001-010_nowakiewicz-kazimierz--missa-in-b-dona-nobis.krn
!!!cenid: 18xx:3459
!!!COM: Nowakiewicz, Kazimierz
!!!COM-rismID: pe30020309
!!!CDT: <1800->1824
!!!CNT: Polish
!!!OPR: Missa in B
!!!OTL: Dona nobis
!!!OMV: 010
!!!PDT:
!!!AGN:
!!!SMS-siglum: PL-STAb
!!!SMS-shelfmark: 27c
!!!SMS-shelfwork: 001-010 M
!!!SMS-variant:
!!!SMS-altvar:
!!!NIFC-rismSourceID: 301050705
!!!NIFC-islandoraID: pl-stab:3750
!!!URL-pdf-islandora: https://repozytorium.nifc.pl/islandora/object/pl-stab%3A3750/datastream/PDF/view
!!!URL-scan: https://polish.musicsources.pl/pl/lokalizacje/galeria/rekopisy/4473 @EN{Scan on Polish Music Sources Website} @PL{Skany w portalu Dziedzictwo Muzyki Polskiej w otwartym dostępie}
!!!ONB-nifc: UWAGA: części Mszy: 1. Kyrie, 2. Gloria, 3. Credo, 4. Et incarnatus, 5. Et resurrexit, 6. Sanctus, 7. Pleni sunt, 8. Benedictus, 9. Agnus Dei, 10. Dona nobis
!!!AIN: 1 alto 1 bass 4 cor 1 organ 1 soprn 1 tenor 2 violn
!!!key: B-
**kern	**fba	**kern	**dynam	**kern	**dynam	**kern	**text	**kern	**text	**dynam	**kern	**text	**kern	**text	**dynam	**kern	**kern	**dynam	**kern	**kern
*part11	*part11	*part10	*part10	*part9	*part9	*part8	*part8	*part7	*part7	*part7	*part6	*part6	*part5	*part5	*part5	*part4	*part3	*part3	*part2	*part1
*staff11	*	*staff10	*	*staff9	*	*staff8	*staff8	*staff7	*staff7	*	*staff6	*staff6	*staff5	*staff5	*	*staff4	*staff3	*	*staff2	*staff1
*IGcont	*	*IGacmp	*	*IGacmp	*	*IGcoro	*	*IGcoro	*	*	*IGcoro	*	*IGcoro	*	*	*IGacmp	*IGacmp	*	*IGacmp	*IGacmp
*ICklav	*	*ICstr	*	*ICstr	*	*ICvox	*	*ICvox	*	*	*ICvox	*	*ICvox	*	*	*ICbrass	*ICbrass	*	*ICbrass	*ICbrass
*Iorgan	*	*Ivioln	*	*Ivioln	*	*Ibass	*	*Itenor	*	*	*Ialto	*	*Isoprn	*	*	*Icor	*Icor	*	*Icor	*Icor
*I"Organo	*	*I"Violino Secundo	*	*I"Violino Primo	*	*I"Baſso	*	*I"Tenore	*	*	*I"Alto	*	*I"Canto	*	*	*I"Cornu secundo in B.	*I"Cornu Primo in B	*	*I"Clarinetto 2do in B	*I"Clarinetto Primo in B.
*I'org	*	*I'vl 2	*	*I'vl 1	*	*I'B	*	*I'T	*	*	*I'A	*	*I'S	*	*	*I'cor 2 in B|b	*I'cor 1 in B|b	*	*I'cl 2 in B|b	*I'cl 1 in B|b
*clefF4	*	*clefG2	*	*clefG2	*	*clefF4	*	*clefC4	*	*	*clefC3	*	*clefC1	*	*	*clefG2	*clefG2	*	*clefG2	*clefG2
*	*	*	*	*	*	*	*	*	*	*	*	*	*	*	*	*ITrd1c2	*ITrd1c2	*	*ITrd1c2	*ITrd1c2
*k[b-e-]	*	*k[b-e-]	*	*k[b-e-]	*	*k[b-e-]	*	*k[e-b-]	*	*	*k[e-b-]	*	*k[e-b-]	*	*	*k[b-e-]	*k[b-e-]	*	*k[b-e-]	*k[b-e-]
*B-:	*	*B-:	*	*B-:	*	*B-:	*	*B-:	*	*	*B-:	*	*B-:	*	*	*B-:	*B-:	*	*B-:	*B-:
*	*	*	*	*	*	*	*	*	*	*	*	*	*	*	*	*	*	*	*	*
*M4/4	*	*M4/4	*	*M4/4	*	*M4/4	*	*M4/4	*	*	*M4/4	*	*M4/4	*	*	*M4/4	*M4/4	*	*M4/4	*M4/4
*met(c)	*	*met(c)	*	*met(c)	*	*met(c)	*	*met(c)	*	*	*met(c)	*	*met(c)	*	*	*met(c)	*met(c)	*	*met(c)	*met(c)
*2\right	*	*2\right	*	*2\right	*	*2\right	*	*2\right	*	*	*2\right	*	*2\right	*	*	*2\right	*2\right	*	*2\right	*2\right
=1	=1	=1	=1	=1	=1	=1	=1	=1	=1	=1	=1	=1	=1	=1	=1	=1	=1	=1	=1	=1
!	!	!	!	!	!	!	!	!	!	!	!	!	!	!	!	!	!	!	!	!
!LO:TX:b:t=Dona:rj	!	!	!	!	!	!	!	!	!	!	!	!	!	!	!	!LO:TX:b:t=Dona:rj	!LO:TX:b:t=Dona:rj	!	!LO:TX:b:t=Dona:rj	!LO:TX:b:t=Dona:rj
!LO:TX:a:t=allo moderato:rj	!	!LO:TX:a:t=allo molto	!	!LO:TX:a:t=allo Mode&colon;:rj	!LO:DY:a:t=p.	!LO:TX:a:t=allo Moderato:rj	!	!	!	!	!	!	!	!	!	!LO:TX:a:t=allo mod&colon;:rj	!LO:TX:a:t=allo mod&colon;:rj	!	!LO:TX:a:t=allo:rj	!LO:TX:a:t=allo mod&colon;:rj
4FF	.	4f	.	4f	p	0r	.	0r	.	.	0r	.	0r	.	.	0r	0r	.	4f	4ff
4r	.	16fLL	.	4r	.	.	.	.	.	.	.	.	.	.	.	.	.	.	4r	4r
!	!	!LO:N:acc=#	!	!	!	!	!	!	!	!	!	!	!	!	!	!	!	!	!	!
.	.	16en	.	.	.	.	.	.	.	.	.	.	.	.	.	.	.	.	.	.
.	.	16f	.	.	.	.	.	.	.	.	.	.	.	.	.	.	.	.	.	.
.	.	16gJJ	.	.	.	.	.	.	.	.	.	.	.	.	.	.	.	.	.	.
*	*	*tremolo	*	*	*	*	*	*	*	*	*	*	*	*	*	*	*	*	*	*
2r	.	8fL	.	2r	.	.	.	.	.	.	.	.	.	.	.	.	.	.	2r	2r
.	.	8f	.	.	.	.	.	.	.	.	.	.	.	.	.	.	.	.	.	.
.	.	8f	.	.	.	.	.	.	.	.	.	.	.	.	.	.	.	.	.	.
.	.	8fJ	.	.	.	.	.	.	.	.	.	.	.	.	.	.	.	.	.	.
*	*	*Xtremolo	*	*	*	*	*	*	*	*	*	*	*	*	*	*	*	*	*	*
=2	=2	=2	=2	=2	=2	=2	=2	=2	=2	=2	=2	=2	=2	=2	=2	=2	=2	=2	=2	=2
4F	.	1f	.	8r	.	.	.	.	.	.	.	.	.	.	.	.	.	.	1r	1r
.	.	.	.	8ccL	.	.	.	.	.	.	.	.	.	.	.	.	.	.	.	.
4r	.	.	.	8ee-	.	.	.	.	.	.	.	.	.	.	.	.	.	.	.	.
.	.	.	.	8ccJ	.	.	.	.	.	.	.	.	.	.	.	.	.	.	.	.
4B-	.	.	.	8r	.	.	.	.	.	.	.	.	.	.	.	.	.	.	.	.
.	.	.	.	8ddL	.	.	.	.	.	.	.	.	.	.	.	.	.	.	.	.
4r	.	.	.	8ff	.	.	.	.	.	.	.	.	.	.	.	.	.	.	.	.
.	.	.	.	8ddJ	.	.	.	.	.	.	.	.	.	.	.	.	.	.	.	.
=3	=3	=3	=3	=3	=3	=3	=3	=3	=3	=3	=3	=3	=3	=3	=3	=3	=3	=3	=3	=3
*	*	*	*	*^	*	*	*	*	*	*	*	*	*	*	*	*	*	*	*	*
!	!	!	!	!	!	!	!	!	!	!	!	!	!	!	!	!	!	!	!LO:DY:a:t=p.	!	!
(8AL	6 5	8f	.	8ee-	1f	.	1A	Do-	1c	Do-	.	1f	Do-	1ee-	Do-	.	4f	4cc	p	1cc	1ee-
8c)	.	4f	.	4ee-	.	.	.	.	.	.	.	.	.	.	.	.	.	.	.	.	.
(8c	.	.	.	.	.	.	.	.	.	.	.	.	.	.	.	.	4r	4r	.	.	.
8AJ)	.	4f	.	4ee-	.	.	.	.	.	.	.	.	.	.	.	.	.	.	.	.	.
(8AL	.	.	.	.	.	.	.	.	.	.	.	.	.	.	.	.	4f	4cc	.	.	.
8c)	.	4f	.	4ee-	.	.	.	.	.	.	.	.	.	.	.	.	.	.	.	.	.
(8c	.	.	.	.	.	.	.	.	.	.	.	.	.	.	.	.	4r	4r	.	.	.
8AJ)	.	8f	.	8ee-	.	.	.	.	.	.	.	.	.	.	.	.	.	.	.	.	.
*	*	*	*	*v	*v	*	*	*	*	*	*	*	*	*	*	*	*	*	*	*	*
=4	=4	=4	=4	=4	=4	=4	=4	=4	=4	=4	=4	=4	=4	=4	=4	=4	=4	=4	=4	=4
4B-	.	4f	.	8dd	.	4B-	-na	4B-	-na	.	4f	-na	4dd	-na	.	4b-	8dd	.	4b-	4dd
.	.	.	.	8r	.	.	.	.	.	.	.	.	.	.	.	.	8r	.	.	.
4r	.	16fLL	.	4r	.	4r	.	4r	.	.	4r	.	4r	.	.	4r	4r	.	4r	4r
!	!	!LO:N:acc=#	!	!	!	!	!	!	!	!	!	!	!	!	!	!	!	!	!	!
.	.	16en	.	.	.	.	.	.	.	.	.	.	.	.	.	.	.	.	.	.
.	.	16f	.	.	.	.	.	.	.	.	.	.	.	.	.	.	.	.	.	.
.	.	16gJJ	.	.	.	.	.	.	.	.	.	.	.	.	.	.	.	.	.	.
*	*	*tremolo	*	*	*	*	*	*	*	*	*	*	*	*	*	*	*	*	*	*
2r	.	8fL	.	2r	.	2r	.	2r	.	.	2r	.	2r	.	.	2r	2r	.	2r	2r
.	.	8f	.	.	.	.	.	.	.	.	.	.	.	.	.	.	.	.	.	.
.	.	8f	.	.	.	.	.	.	.	.	.	.	.	.	.	.	.	.	.	.
.	.	8fJ	.	.	.	.	.	.	.	.	.	.	.	.	.	.	.	.	.	.
*	*	*Xtremolo	*	*	*	*	*	*	*	*	*	*	*	*	*	*	*	*	*	*
=5	=5	=5	=5	=5	=5	=5	=5	=5	=5	=5	=5	=5	=5	=5	=5	=5	=5	=5	=5	=5
4F	.	4f	.	8r	.	1r	.	1r	.	.	1r	.	1r	.	.	1r	1r	.	1f	1ff
!	!	!	!	!LO:TX:a:t=|:problem	!	!	!	!	!	!	!	!	!	!	!	!	!	!	!	!
.	.	.	.	8ccL|	.	.	.	.	.	.	.	.	.	.	.	.	.	.	.	.
4r	.	2f	.	(8ee-	.	.	.	.	.	.	.	.	.	.	.	.	.	.	.	.
.	.	.	.	8ccJ)	.	.	.	.	.	.	.	.	.	.	.	.	.	.	.	.
4BB-	.	.	.	8r	.	.	.	.	.	.	.	.	.	.	.	.	.	.	.	.
!	!	!	!	!LO:TX:a:t=|:problem	!	!	!	!	!	!	!	!	!	!	!	!	!	!	!	!
.	.	.	.	8ddL|	.	.	.	.	.	.	.	.	.	.	.	.	.	.	.	.
4r	.	4f	.	(8ff	.	.	.	.	.	.	.	.	.	.	.	.	.	.	.	.
.	.	.	.	8ddJ)	.	.	.	.	.	.	.	.	.	.	.	.	.	.	.	.
=6	=6	=6	=6	=6	=6	=6	=6	=6	=6	=6	=6	=6	=6	=6	=6	=6	=6	=6	=6	=6
*	*	*	*	*^	*	*	*	*	*	*	*	*	*	*	*	*	*	*	*	*
!LO:LB:g=original	!	!LO:LB:g=original	!	!LO:LB:g=original	!LO:LB:g=original	!	!	!	!	!	!	!	!	!	!	!	!	!	!	!	!
8AL	6 5	8f	.	8ee-	1f	.	1A	no-	1c	no-	.	1f	no-	1ee-	no-	.	4f	4cc	.	1cc	1ee-
8c	.	4f	.	4ee-	.	.	.	.	.	.	.	.	.	.	.	.	.	.	.	.	.
8c	.	.	.	.	.	.	.	.	.	.	.	.	.	.	.	.	4r	4r	.	.	.
8AJ	.	4f	.	4ee-	.	.	.	.	.	.	.	.	.	.	.	.	.	.	.	.	.
(8AL	.	.	.	.	.	.	.	.	.	.	.	.	.	.	.	.	4f	4cc	.	.	.
8c)	.	4f	.	4ee-	.	.	.	.	.	.	.	.	.	.	.	.	.	.	.	.	.
(8c	.	.	.	.	.	.	.	.	.	.	.	.	.	.	.	.	4r	4r	.	.	.
8AJ)	.	8f	.	8ee-	.	.	.	.	.	.	.	.	.	.	.	.	.	.	.	.	.
*	*	*	*	*v	*v	*	*	*	*	*	*	*	*	*	*	*	*	*	*	*	*
=7	=7	=7	=7	=7	=7	=7	=7	=7	=7	=7	=7	=7	=7	=7	=7	=7	=7	=7	=7	=7
4B-	.	4f	.	8ddL	.	4B-	-bis	4B-	-bis	.	4f	-bis	4dd	-bis	.	4b-	8dd	.	4b-	4dd
.	.	.	.	8b-	.	.	.	.	.	.	.	.	.	.	.	.	8r	.	.	.
4r	.	4r	.	8b-	.	4r	.	4r	.	.	4r	.	4r	.	.	4r	4r	.	4r	4r
.	.	.	.	8b-J	.	.	.	.	.	.	.	.	.	.	.	.	.	.	.	.
2r	.	2r	.	8aL	.	2r	.	2r	.	.	2r	.	2r	.	.	2r	2r	.	2r	2r
.	.	.	.	8b-	.	.	.	.	.	.	.	.	.	.	.	.	.	.	.	.
.	.	.	.	8b-	.	.	.	.	.	.	.	.	.	.	.	.	.	.	.	.
.	.	.	.	8b-J	.	.	.	.	.	.	.	.	.	.	.	.	.	.	.	.
=8	=8	=8	=8	=8	=8	=8	=8	=8	=8	=8	=8	=8	=8	=8	=8	=8	=8	=8	=8	=8
*	*	*^	*	*	*	*	*	*	*	*	*	*	*	*	*	*	*	*	*	*
4BB-	x 6	8f	1B-	.	8a-X	.	1D	pa-	1c	pa-	.	1f	pa-	1a-X	pa-	.	00r	00r	.	1ff	2aa-X
.	7 5	4f	.	.	4a-	.	.	.	.	.	.	.	.	.	.	.	.	.	.	.	.
4F	.	.	.	.	.	.	.	.	.	.	.	.	.	.	.	.	.	.	.	.	.
.	.	4f	.	.	4a-	.	.	.	.	.	.	.	.	.	.	.	.	.	.	.	.
4D	.	.	.	.	.	.	.	.	.	.	.	.	.	.	.	.	.	.	.	.	2aa-
.	.	4f	.	.	4a-	.	.	.	.	.	.	.	.	.	.	.	.	.	.	.	.
4BB-	.	.	.	.	.	.	.	.	.	.	.	.	.	.	.	.	.	.	.	.	.
.	.	8f	.	.	8a-	.	.	.	.	.	.	.	.	.	.	.	.	.	.	.	.
*	*	*v	*v	*	*	*	*	*	*	*	*	*	*	*	*	*	*	*	*	*	*
=9	=9	=9	=9	=9	=9	=9	=9	=9	=9	=9	=9	=9	=9	=9	=9	=9	=9	=9	=9	=9
4E-	.	4g	.	(8gL	.	4E-	-cem	4B-	-cem	.	4e-	-cem	4g	-cem	.	.	.	.	4ee-	4gg
.	.	.	.	8cc)	.	.	.	.	.	.	.	.	.	.	.	.	.	.	.	.
!	!	!	!	!LO:TX:b:t=|:problem	!	!	!	!	!	!	!	!	!	!	!	!	!	!	!	!
4r	.	4r	.	8cc|	.	4r	.	4r	.	.	4r	.	4r	.	.	.	.	.	4r	4r
!	!	!	!	!LO:TX:b:t=|:problem	!	!	!	!	!	!	!	!	!	!	!	!	!	!	!	!
.	.	.	.	8ccJ|	.	.	.	.	.	.	.	.	.	.	.	.	.	.	.	.
2r	.	2r	.	(8bnL	.	2r	.	2r	.	.	2r	.	2r	.	.	.	.	.	2r	2r
.	.	.	.	8cc)	.	.	.	.	.	.	.	.	.	.	.	.	.	.	.	.
!	!	!	!	!LO:TX:a:t=|:problem	!	!	!	!	!	!	!	!	!	!	!	!	!	!	!	!
.	.	.	.	8cc|	.	.	.	.	.	.	.	.	.	.	.	.	.	.	.	.
!	!	!	!	!LO:TX:a:t=|:problem	!	!	!	!	!	!	!	!	!	!	!	!	!	!	!	!
.	.	.	.	8ccJ|	.	.	.	.	.	.	.	.	.	.	.	.	.	.	.	.
=10	=10	=10	=10	=10	=10	=10	=10	=10	=10	=10	=10	=10	=10	=10	=10	=10	=10	=10	=10	=10
*	*	*	*	*	*	*	*	*	*ij	*	*	*ij	*	*ij	*	*	*	*	*	*
!	!	!	!	!	!	!	!	!	!	!	!	!	!	!	!	!	!	!	!	!LO:LB:g=original
4En	6 5	8g	.	8b-X	.	1En	pa-	1c	pa-	.	1g	pa-	1b-	pa-	.	.	.	.	1gg	1bb-
.	.	4g	.	4b-	.	.	.	.	.	.	.	.	.	.	.	.	.	.	.	.
4G	.	.	.	.	.	.	.	.	.	.	.	.	.	.	.	.	.	.	.	.
.	.	4g	.	4b-	.	.	.	.	.	.	.	.	.	.	.	.	.	.	.	.
4E	.	.	.	.	.	.	.	.	.	.	.	.	.	.	.	.	.	.	.	.
.	.	4g	.	4b-	.	.	.	.	.	.	.	.	.	.	.	.	.	.	.	.
4C\	.	.	.	.	.	.	.	.	.	.	.	.	.	.	.	.	.	.	.	.
.	.	8g	.	8b-	.	.	.	.	.	.	.	.	.	.	.	.	.	.	.	.
=11	=11	=11	=11	=11	=11	=11	=11	=11	=11	=11	=11	=11	=11	=11	=11	=11	=11	=11	=11	=11
!	!	!	!	!LO:LB:g=original	!	!	!	!	!	!	!	!	!	!	!	!	!	!	!	!
!	!	!LO:SIC:v:s=4f/	!	!LO:TX:t=P:problem=mixed beam	!	!LO:LB:g=original	!	!	!	!	!	!	!	!	!	!	!	!	!	!
4F	.	4g	.	(8a/L	.	4F	-cem	4c	-cem	.	4f	-cem	4an	-cem	.	.	.	.	4ff	4aa
*	*	*	*	*	*	*	*	*	*Xij	*	*	*Xij	*	*Xij	*	*	*	*	*	*
.	.	.	.	8ff\)	.	.	.	.	.	.	.	.	.	.	.	.	.	.	.	.
!	!	!	!	!LO:TX:a:t=|:problem	!	!	!	!	!	!	!	!	!	!	!	!	!	!	!	!
4r	.	4r	.	8ff\|	.	4r	.	4r	.	.	4r	.	4r	.	.	.	.	.	4r	4r
!	!	!	!	!LO:TX:a:t=|:problem	!	!	!	!	!	!	!	!	!	!	!	!	!	!	!	!
.	.	.	.	8ff\J|	.	.	.	.	.	.	.	.	.	.	.	.	.	.	.	.
2r	.	2r	.	(8eenL	.	2r	.	2r	.	.	2r	.	2r	.	.	.	.	.	2r	2r
.	.	.	.	8ff)	.	.	.	.	.	.	.	.	.	.	.	.	.	.	.	.
!	!	!	!	!LO:TX:a:t=|:problem	!	!	!	!	!	!	!	!	!	!	!	!	!	!	!	!
.	.	.	.	8ff|	.	.	.	.	.	.	.	.	.	.	.	.	.	.	.	.
!	!	!	!	!LO:TX:a:t=|:problem	!	!	!	!	!	!	!	!	!	!	!	!	!	!	!	!
.	.	.	.	8ffJ|	.	.	.	.	.	.	.	.	.	.	.	.	.	.	.	.
=12	=12	=12	=12	=12	=12	=12	=12	=12	=12	=12	=12	=12	=12	=12	=12	=12	=12	=12	=12	=12
*	*	*tremolo	*	*	*	*	*	*	*	*	*	*	*	*	*	*	*	*	*	*
!	!	!	!	!	!	!	!	!LO:LB:g=original	!	!	!LO:LB:g=original	!	!LO:LB:g=original	!	!	!	!	!	!	!
!	!	!	!LO:DY:a:t=for	!	!LO:DY:a:t=for:rj	!	!	!	!	!LO:DY:a:t=for	!	!	!	!	!	!	!	!LO:DY:a:t=f.:rj	!LO:LB:g=original	!
4AA	x 6\	16fLL	f	8f/ 8ee-X/	f	4A	Do-	4c	Do-	f	4f	Do-	4ee-	Do-	.	4f	4cc	f	4ff	1ff
.	x 3	16f	.	.	.	.	.	.	.	.	.	.	.	.	.	.	.	.	.	.
.	.	16f	.	4f 4dd	.	.	.	.	.	.	.	.	.	.	.	.	.	.	.	.
.	.	16f	.	.	.	.	.	.	.	.	.	.	.	.	.	.	.	.	.	.
4BB-	.	16f	.	.	.	4B-	-na	4B-	-na	.	4f	-na	4dd	-na	.	4b-	4dd	.	4ee-	.
.	.	16f	.	.	.	.	.	.	.	.	.	.	.	.	.	.	.	.	.	.
.	.	16f	.	4f 4cc	.	.	.	.	.	.	.	.	.	.	.	.	.	.	.	.
.	.	16fJJ	.	.	.	.	.	.	.	.	.	.	.	.	.	.	.	.	.	.
4C	x 6	16fLL	.	.	.	4c	no-	4A	no-	.	4f	no-	4cc	no-	.	4f	4cc	.	4dd	.
.	.	16f	.	.	.	.	.	.	.	.	.	.	.	.	.	.	.	.	.	.
.	.	16f	.	4f 4b-	.	.	.	.	.	.	.	.	.	.	.	.	.	.	.	.
.	.	16f	.	.	.	.	.	.	.	.	.	.	.	.	.	.	.	.	.	.
4D/	x 6	16f	.	.	.	4d	-bis	4B-	-bis	.	4f	-bis	4b-	-bis	.	4d	4b-	.	4cc	.
.	.	16f	.	.	.	.	.	.	.	.	.	.	.	.	.	.	.	.	.	.
.	.	16f	.	8f 8b-	.	.	.	.	.	.	.	.	.	.	.	.	.	.	.	.
.	.	16fJJ	.	.	.	.	.	.	.	.	.	.	.	.	.	.	.	.	.	.
=13	=13	=13	=13	=13	=13	=13	=13	=13	=13	=13	=13	=13	=13	=13	=13	=13	=13	=13	=13	=13
*	*	*	*	*	*	*	*	*	*	*	*	*	*	*ij	*	*	*	*	*	*
!LO:LB:g=original	!	!LO:LB:g=original	!	!	!	!	!	!	!	!	!	!	!	!	!	!	!	!	!	!
4E-	4 2	16fLL	.	4f 4a	.	4e-	pa-	4c	pa-	.	4f	pa-	4a	no-	.	4f	4cc	.	4cc	4aa
.	.	16f	.	.	.	.	.	.	.	.	.	.	.	.	.	.	.	.	.	.
.	.	16f	.	.	.	.	.	.	.	.	.	.	.	.	.	.	.	.	.	.
.	.	16f	.	.	.	.	.	.	.	.	.	.	.	.	.	.	.	.	.	.
4D	x 6	16f	.	4f 4b-	.	4d	-cem	4d	-cem	.	4f	-cem	4b-	-bis	.	4d	4b-	.	4b-	4bb-
*	*	*	*	*	*	*	*	*	*	*	*	*	*	*Xij	*	*	*	*	*	*
.	.	16f	.	.	.	.	.	.	.	.	.	.	.	.	.	.	.	.	.	.
.	.	16f	.	.	.	.	.	.	.	.	.	.	.	.	.	.	.	.	.	.
.	.	16fJJ	.	.	.	.	.	.	.	.	.	.	.	.	.	.	.	.	.	.
*	*	*	*	*	*	*	*ij	*	*	*	*	*	*	*	*	*	*	*	*	*
4A	x 6	16fLL	.	8ccL	.	4A	pa-	4c	do-	.	4f	do-	4cc	pa-	.	4f	4cc	.	2cc	2ff
.	.	16f	.	.	.	.	.	.	.	.	.	.	.	.	.	.	.	.	.	.
.	.	16f	.	16ddL	.	.	.	.	.	.	.	.	.	.	.	.	.	.	.	.
.	.	16f	.	16ee-JJ	.	.	.	.	.	.	.	.	.	.	.	.	.	.	.	.
4F	x 8	16f	.	8ffL	.	4F	-cem	4B-	-na	.	4f	-na	4cc	-cem	.	4r	4r	.	.	.
*	*	*	*	*	*	*	*Xij	*	*	*	*	*	*	*	*	*	*	*	*	*
.	.	16f	.	.	.	.	.	.	.	.	.	.	.	.	.	.	.	.	.	.
.	x 7	16f	.	8ee-J	.	.	.	.	.	.	.	.	.	.	.	.	.	.	.	.
.	.	16fJJ	.	.	.	.	.	.	.	.	.	.	.	.	.	.	.	.	.	.
=14	=14	=14	=14	=14	=14	=14	=14	=14	=14	=14	=14	=14	=14	=14	=14	=14	=14	=14	=14	=14
!	!	!	!	!	!	!	!	!	!	!	!	!	!	!	!	!LO:LB:g=original	!	!	!	!
8B-L	.	16fLL	.	8ddL	.	8B-L	Do-	4B-	no-	.	4f	no-	8ddL	Do-	.	4b-	4dd	.	2dd	1ff
.	.	16f	.	.	.	.	.	.	.	.	.	.	.	.	.	.	.	.	.	.
8cJ	.	16f	.	8ccJ	.	8cJ	.	.	.	.	.	.	8ccJ	.	.	.	.	.	.	.
.	.	16f	.	.	.	.	.	.	.	.	.	.	.	.	.	.	.	.	.	.
4d	x 6	16f	.	4b-	.	4d	-na	4B-	-bis	.	4f	-bis	4b-	-na	.	4r	4r	.	.	.
.	.	16f	.	.	.	.	.	.	.	.	.	.	.	.	.	.	.	.	.	.
.	.	16f	.	.	.	.	.	.	.	.	.	.	.	.	.	.	.	.	.	.
.	.	16fJJ	.	.	.	.	.	.	.	.	.	.	.	.	.	.	.	.	.	.
4A	x 6	16fLL	.	8ccL	.	4A	no-	4c	pa-	.	4f	pa-	4cc	no-	.	4f	4cc	.	2cc	.
.	.	16f	.	.	.	.	.	.	.	.	.	.	.	.	.	.	.	.	.	.
.	.	16f	.	16ddL	.	.	.	.	.	.	.	.	.	.	.	.	.	.	.	.
.	.	16f	.	16ee-JJ	.	.	.	.	.	.	.	.	.	.	.	.	.	.	.	.
4F	x 7	16f	.	8ffL	.	4F	-bis	4A	-ce(m)	.	4f	-cem	4cc	-bis	.	4r	4r	.	.	.
.	.	16f	.	.	.	.	.	.	.	.	.	.	.	.	.	.	.	.	.	.
.	.	16f	.	8ee-J	.	.	.	.	.	.	.	.	.	.	.	.	.	.	.	.
.	.	16fJJ	.	.	.	.	.	.	.	.	.	.	.	.	.	.	.	.	.	.
=15	=15	=15	=15	=15	=15	=15	=15	=15	=15	=15	=15	=15	=15	=15	=15	=15	=15	=15	=15	=15
*	*	*	*	*	*	*	*	*	*	*	*	*ij	*	*ij	*	*	*	*	*	*
8B-L	.	16fLL	.	8ddL	.	8B-L	pa-	4B-	do-	.	4f	no-	8ddL	Do-	.	4b-	4dd	.	2dd	2ff
.	.	16f	.	.	.	.	.	.	.	.	.	.	.	.	.	.	.	.	.	.
8cJ	.	16f	.	8ccJ	.	8cJ	.	.	.	.	.	.	8ccJ	.	.	.	.	.	.	.
.	.	16f	.	.	.	.	.	.	.	.	.	.	.	.	.	.	.	.	.	.
4d	x 6	16f	.	4b-	.	4d	-cem	4B-	-[na]	.	4f	-bis	4b-	-na	.	4r	4r	.	.	.
.	.	16f	.	.	.	.	.	.	.	.	.	.	.	.	.	.	.	.	.	.
.	.	16f	.	.	.	.	.	.	.	.	.	.	.	.	.	.	.	.	.	.
.	.	16fJJ	.	.	.	.	.	.	.	.	.	.	.	.	.	.	.	.	.	.
!	!	!	!	!LO:LB:g=original	!	!	!	!	!	!	!	!	!	!	!	!	!	!	!	!
4Bn	x 6	16fLL	.	8ddL	.	4Bn	do-	4d	no-	.	4g	pa-	4dd	no-	.	2r	2r	.	2dd	2gg
.	.	16f	.	.	.	.	.	.	.	.	.	.	.	.	.	.	.	.	.	.
.	.	16f	.	16eenL	.	.	.	.	.	.	.	.	.	.	.	.	.	.	.	.
.	.	16f	.	16ffJJ	.	.	.	.	.	.	.	.	.	.	.	.	.	.	.	.
4G	x 8	16f	.	8ggL	.	4G	-na	4Bn	-bis	.	4g	-cem	4dd	-bis	.	.	.	.	.	.
*	*	*	*	*	*	*	*	*	*	*	*	*Xij	*	*Xij	*	*	*	*	*	*
.	.	16f	.	.	.	.	.	.	.	.	.	.	.	.	.	.	.	.	.	.
.	.	16f	.	8ffJ	.	.	.	.	.	.	.	.	.	.	.	.	.	.	.	.
.	.	16fJJ	.	.	.	.	.	.	.	.	.	.	.	.	.	.	.	.	.	.
=16	=16	=16	=16	=16	=16	=16	=16	=16	=16	=16	=16	=16	=16	=16	=16	=16	=16	=16	=16	=16
8cL	.	16aLL	.	8eenL	.	8cL	no-	4c	pa-	.	4g	Do-	8eenL	pa-	.	1ryy	1r	.	8eeXL	1gg
.	.	16a	.	.	.	.	.	.	.	.	.	.	.	.	.	.	.	.	.	.
8dJ	.	16a	.	8ddJ	.	8dJ	.	.	.	.	.	.	8ddJ	.	.	.	.	.	8ddJ	.
.	.	16a	.	.	.	.	.	.	.	.	.	.	.	.	.	.	.	.	.	.
4en	x 6	16a	.	4cc	.	4en	-bis	4c	-cem	.	4g	-na	4cc	-cem	.	.	.	.	4cc	.
.	.	16a	.	.	.	.	.	.	.	.	.	.	.	.	.	.	.	.	.	.
.	.	16a	.	.	.	.	.	.	.	.	.	.	.	.	.	.	.	.	.	.
.	.	16aJJ	.	.	.	.	.	.	.	.	.	.	.	.	.	.	.	.	.	.
4Bn	x 6	16aLL	.	8ddL	.	4Bn	pa-	4d	-do-	.	4g	no-	4dd	do-	.	.	.	.	2dd	.
.	.	16a	.	.	.	.	.	.	.	.	.	.	.	.	.	.	.	.	.	.
.	.	16a	.	16eeL	.	.	.	.	.	.	.	.	.	.	.	.	.	.	.	.
.	.	16a	.	16ffJJ	.	.	.	.	.	.	.	.	.	.	.	.	.	.	.	.
4G	x 7	16a	.	8ggL	.	4G	-cem	4c	-na	.	4g	-bis	4dd	-na	.	.	.	.	.	.
.	.	16a	.	.	.	.	.	.	.	.	.	.	.	.	.	.	.	.	.	.
.	.	16a	.	8ffJ	.	.	.	.	.	.	.	.	.	.	.	.	.	.	.	.
.	.	16aJJ	.	.	.	.	.	.	.	.	.	.	.	.	.	.	.	.	.	.
=17	=17	=17	=17	=17	=17	=17	=17	=17	=17	=17	=17	=17	=17	=17	=17	=17	=17	=17	=17	=17
*tremolo	*	*	*	*	*	*	*	*	*	*	*	*ij	*	*	*	*	*	*	*	*
!	!	!LO:SIC:v:s=16g/LL	!	!	!	!LO:LB:g=original	!	!	!	!	!	!	!	!	!	!	!LO:LB:g=original	!	!	!
8cL	x 5	16aLL	.	16eenLL	.	4c	Do-	4c	no-	.	4g	Do-	1ryy	.	.	4cc	4cc	.	2eeX	2gg
!	!	!LO:SIC:v:s=16g/	!	!	!	!	!	!	!	!	!	!	!	!	!	!	!	!	!	!
.	.	16a	.	16ff	.	.	.	.	.	.	.	.	.	.	.	.	.	.	.	.
!	!	!LO:SIC:v:s=16g/	!	!	!	!	!	!	!	!	!	!	!	!	!	!	!	!	!	!
8c	.	16a	.	16ee	.	.	.	.	.	.	.	.	.	.	.	.	.	.	.	.
!	!	!LO:SIC:v:s=16g/	!	!	!	!	!	!	!	!	!	!	!	!	!	!	!	!	!	!
.	.	16a	.	16ffJJ	.	.	.	.	.	.	.	.	.	.	.	.	.	.	.	.
!	!	!LO:SIC:v:s=16g/	!	!	!	!	!	!	!	!	!	!	!	!	!	!	!	!	!	!
8c	.	16a	.	16ggLL	.	4C	-na	4c	-bis	.	4g	-na	.	.	.	8ccL	8ccL	.	.	.
!	!	!LO:SIC:v:s=16g/	!	!	!	!	!	!	!	!	!	!	!	!	!	!	!	!	!	!
.	.	16a	.	16aa	.	.	.	.	.	.	.	.	.	.	.	.	.	.	.	.
!	!	!LO:SIC:v:s=16g/	!	!	!	!	!	!	!	!	!	!	!	!	!	!	!	!	!	!
8cJ	.	16a	.	16gg	.	.	.	.	.	.	.	.	.	.	.	8ccJ	8ccJ	.	.	.
!	!	!LO:SIC:v:s=16g/JJ	!	!	!	!	!	!	!	!	!	!	!	!	!	!	!	!	!	!
.	.	16aJJ	.	16aaJJ	.	.	.	.	.	.	.	.	.	.	.	.	.	.	.	.
8EnL	6 5	16cLL	.	16bb-LL	.	4En	no-	4c	pa-	.	4g	no-	.	.	.	4cc	4cc	.	2cc	2bb-
.	.	16g	.	16aa	.	.	.	.	.	.	.	.	.	.	.	.	.	.	.	.
8E	.	16c	.	16gg	.	.	.	.	.	.	.	.	.	.	.	.	.	.	.	.
.	.	16g	.	16ffJJ	.	.	.	.	.	.	.	.	.	.	.	.	.	.	.	.
8E	.	16c	.	16eeLL	.	4E	-bis	4c	-cem	.	4g	-bis	.	.	.	4r	4r	.	.	.
*	*	*	*	*	*	*	*	*	*	*	*	*Xij	*	*	*	*	*	*	*	*
.	.	16g	.	16dd	.	.	.	.	.	.	.	.	.	.	.	.	.	.	.	.
8EJ	.	16c	.	16cc	.	.	.	.	.	.	.	.	.	.	.	.	.	.	.	.
.	.	16gJJ	.	16b-JJ	.	.	.	.	.	.	.	.	.	.	.	.	.	.	.	.
=18	=18	=18	=18	=18	=18	=18	=18	=18	=18	=18	=18	=18	=18	=18	=18	=18	=18	=18	=18	=18
*	*	*	*	*	*	*	*	*	*	*	*	*	*	*	*	*	*tremolo	*	*	*
!	!	!	!	!	!	!LO:TX:t=P:problem=brak taktu	!	!	!	!	!	!	!	!	!	!	!	!	!	!
8FL	.	16cLL	.	16aLL	.	1ryy	.	2c	Do-	.	2a	do-	2cc	no-	.	1f	8ccL	.	1ff	2aa
.	.	16a	.	16f	.	.	.	.	.	.	.	.	.	.	.	.	.	.	.	.
8F	.	16c	.	16g	.	.	.	.	.	.	.	.	.	.	.	.	8cc	.	.	.
.	.	16a	.	16aJJ	.	.	.	.	.	.	.	.	.	.	.	.	.	.	.	.
8F	.	16c	.	16b-LL	.	.	.	.	.	.	.	.	.	.	.	.	8cc	.	.	.
.	.	16a	.	16cc	.	.	.	.	.	.	.	.	.	.	.	.	.	.	.	.
8FJ	.	16c	.	16dd	.	.	.	.	.	.	.	.	.	.	.	.	8ccJ	.	.	.
.	.	16aJJ	.	16ee-JJ	.	.	.	.	.	.	.	.	.	.	.	.	.	.	.	.
8AL	x 6	16cLL	.	16ffLL	.	.	.	2c	-na	.	2a	-na	2cc	-bis	.	.	8ccL	.	.	2aa
.	.	16a	.	16gg	.	.	.	.	.	.	.	.	.	.	.	.	.	.	.	.
8A	.	16c	.	16aa	.	.	.	.	.	.	.	.	.	.	.	.	8cc	.	.	.
.	.	16a	.	16ggJJ	.	.	.	.	.	.	.	.	.	.	.	.	.	.	.	.
!	!	!	!	!LO:LB:g=original	!	!	!	!	!	!	!	!	!	!	!	!	!	!	!	!
8A	.	16c	.	8ffL	.	.	.	.	.	.	.	.	.	.	.	.	8cc	.	.	.
.	.	16a	.	.	.	.	.	.	.	.	.	.	.	.	.	.	.	.	.	.
8AJ	.	16c	.	8ffJ	.	.	.	.	.	.	.	.	.	.	.	.	8ccJ	.	.	.
.	.	16aJJ	.	.	.	.	.	.	.	.	.	.	.	.	.	.	.	.	.	.
*	*	*	*	*	*	*	*	*	*	*	*	*	*	*	*	*	*Xtremolo	*	*	*
=19	=19	=19	=19	=19	=19	=19	=19	=19	=19	=19	=19	=19	=19	=19	=19	=19	=19	=19	=19	=19
!	!	!	!	!	!	!	!	!LO:LB:g=original	!	!	!LO:LB:g=original	!	!LO:LB:g=original	!	!	!	!	!	!	!
8GL	x 6\	16cLL	.	16eenLL	.	2G	Do-	2c	no-	.	2g	no-	2cc	pa-	.	4cc	4cc	.	1gg	2bb-
.	.	16g	.	16ff	.	.	.	.	.	.	.	.	.	.	.	.	.	.	.	.
8G	.	16c	.	16ee	.	.	.	.	.	.	.	.	.	.	.	.	.	.	.	.
.	.	16g	.	16ffJJ	.	.	.	.	.	.	.	.	.	.	.	.	.	.	.	.
8G	.	16c	.	16ggLL	.	.	.	.	.	.	.	.	.	.	.	8ccL	8ccL	.	.	.
.	.	16g	.	16aa	.	.	.	.	.	.	.	.	.	.	.	.	.	.	.	.
8GJ	.	16c	.	16gg	.	.	.	.	.	.	.	.	.	.	.	8ccJ	8ccJ	.	.	.
.	.	16gJJ	.	16aaJJ	.	.	.	.	.	.	.	.	.	.	.	.	.	.	.	.
8CL	7 2	16cLL	.	16bb-LL	.	2C	-na	2en	-bis	.	2g	-bis	2cc	-cem	.	4cc	4cc	.	.	2bb-
.	.	16g	.	16aa	.	.	.	.	.	.	.	.	.	.	.	.	.	.	.	.
8C	.	16c	.	16gg	.	.	.	.	.	.	.	.	.	.	.	.	.	.	.	.
.	.	16g	.	16ffJJ	.	.	.	.	.	.	.	.	.	.	.	.	.	.	.	.
8C	.	16c	.	16eenLL	.	.	.	.	.	.	.	.	.	.	.	4r	4cc	.	.	.
.	.	16g	.	16dd	.	.	.	.	.	.	.	.	.	.	.	.	.	.	.	.
8CJ	.	16c	.	16cc	.	.	.	.	.	.	.	.	.	.	.	.	.	.	.	.
.	.	16gJJ	.	16b-JJ	.	.	.	.	.	.	.	.	.	.	.	.	.	.	.	.
*Xtremolo	*	*Xtremolo	*	*	*	*	*	*	*	*	*	*	*	*	*	*	*	*	*	*
=20	=20	=20	=20	=20	=20	=20	=20	=20	=20	=20	=20	=20	=20	=20	=20	=20	=20	=20	=20	=20
!LO:LB:g=original	!	!	!	!LO:TX:t=P:problem=mixed beam	!	!	!	!	!	!	!	!	!	!	!	!	!	!	!	!
4F	.	8f 8a	.	8a/L	.	4F	no-	4f	Do-	.	4a	do-	4cc	do-	.	4f	4cc	.	4ff	8aaL
.	.	4f 4a	.	16aa\L	.	.	.	.	.	.	.	.	.	.	.	.	.	.	.	8ggJ
.	.	.	.	16gg\JJ	.	.	.	.	.	.	.	.	.	.	.	.	.	.	.	.
4r	.	.	.	8ffL	.	4F	-bis	4c	-na	.	4a	-na	4ff	-na	.	8fL	4cc	.	8a/L	8ffL
.	.	4f 4a	.	8ffJ	.	.	.	.	.	.	.	.	.	.	.	8fJ	.	.	8a/J	8ffJ
16FLL	8 3	.	.	8ff	.	4F	pa-	4c	no-	.	4a	no-	4ff	no-	.	4f	4cc	.	2a/	2ff
16G	_ _	.	.	.	.	.	.	.	.	.	.	.	.	.	.	.	.	.	.	.
16A	.	4f 4a	.	4ff	.	.	.	.	.	.	.	.	.	.	.	.	.	.	.	.
16GJJ	x x	.	.	.	.	.	.	.	.	.	.	.	.	.	.	.	.	.	.	.
8FL	_ _	.	.	.	.	4F	-cem	4c	-bis	.	4a	-bis	4ff	-bis	.	4f	4cc	.	.	.
8FJ	.	8f 8a	.	8ff	.	.	.	.	.	.	.	.	.	.	.	.	.	.	.	.
=21	=21	=21	=21	=21	=21	=21	=21	=21	=21	=21	=21	=21	=21	=21	=21	=21	=21	=21	=21	=21
*	*	*	*	*	*	*	*ij	*	*	*	*	*	*	*	*	*	*	*	*	*
!	!	!LO:LB:g=original	!	!	!	!	!	!	!	!	!	!	!	!	!	!	!	!	!LO:LB:g=original	!
4D	x x	4f 4a	.	16ffLL	.	2D	pa-	2d	pa-	.	2a	pa-	2ff	pa-	.	4d	4dd	.	4a/	4ff
.	.	.	.	16gg	.	.	.	.	.	.	.	.	.	.	.	.	.	.	.	.
.	.	.	.	16aa	.	.	.	.	.	.	.	.	.	.	.	.	.	.	.	.
.	.	.	.	16ggJJ	.	.	.	.	.	.	.	.	.	.	.	.	.	.	.	.
4D	.	4f 4a	.	16ffLL	.	.	.	.	.	.	.	.	.	.	.	4f	4dd	.	4a/	4ff
.	.	.	.	16gg	.	.	.	.	.	.	.	.	.	.	.	.	.	.	.	.
.	.	.	.	16aa	.	.	.	.	.	.	.	.	.	.	.	.	.	.	.	.
.	.	.	.	16ggJJ	.	.	.	.	.	.	.	.	.	.	.	.	.	.	.	.
4D	.	4f 4a	.	4ff	.	4D	-cem	4d	-cem	.	4a	-cem	4ff	-cem	.	4d	4dd	.	4a/	4ff
*	*	*	*	*	*	*	*Xij	*	*	*	*	*	*	*	*	*	*	*	*	*
4r	.	4r	.	4r	.	4r	.	4r	.	.	4r	.	4r	.	.	4r	4r	.	4r	4r
=22	=22	=22	=22	=22	=22	=22	=22	=22	=22	=22	=22	=22	=22	=22	=22	=22	=22	=22	=22	=22
!	!	!	!LO:DY:a	!	!	!	!	!	!	!LO:DY:a:t=p.	!	!	!	!	!	!LO:TX:t=P:problem=brak tt. 22-25	!LO:TX:a:t=7	!	!	!LO:LB:g=original
2BBn	x 6	2g	p	8r	.	2r	.	2r	.	p	2r	.	2.g	no-	.	1ryy	00r	.	00r	00r
!	!	!	!	!LO:TX:t=P:problem=mixed beam	!LO:DY:a:t=p.	!	!	!	!	!	!	!	!	!	!	!	!	!	!	!
.	.	.	.	(8g/L	p	.	.	.	.	.	.	.	.	.	.	.	.	.	.	.
.	.	.	.	8ff\)	.	.	.	.	.	.	.	.	.	.	.	.	.	.	.	.
!	!	!	!	!LO:TX:a:t=|:problem	!	!	!	!	!	!	!	!	!	!	!	!	!	!	!	!
.	.	.	.	8ff\J|	.	.	.	.	.	.	.	.	.	.	.	.	.	.	.	.
2GG	x 7	(8f#XL	.	2ff	.	4BBn	do-	4d	Do-	.	4f	do-	.	.	.	.	.	.	.	.
.	.	8g)	.	.	.	.	.	.	.	.	.	.	.	.	.	.	.	.	.	.
!	!	!LO:TX:b:t=|:problem	!	!	!	!	!	!	!	!	!	!	!	!	!	!	!	!	!	!
.	.	8g|	.	.	.	4BB	-na	4d	-na	.	4f	-na	4g	-bis	.	.	.	.	.	.
!	!	!LO:TX:b:t=|:problem	!	!	!	!	!	!	!	!	!	!	!	!	!	!	!	!	!	!
.	.	8gJ|	.	.	.	.	.	.	.	.	.	.	.	.	.	.	.	.	.	.
=23	=23	=23	=23	=23	=23	=23	=23	=23	=23	=23	=23	=23	=23	=23	=23	=23	=23	=23	=23	=23
1C	.	2g	.	(8ffL	.	2C	no-	2c	no-	.	2en	no-	2g	pa-	.	1ryy	.	.	.	.
!	!	!	!	!LO:SIC:v:s=8een\)	!	!	!	!	!	!	!	!	!	!	!	!	!	!	!	!
.	.	.	.	8ee-)	.	.	.	.	.	.	.	.	.	.	.	.	.	.	.	.
.	.	.	.	(8aa	.	.	.	.	.	.	.	.	.	.	.	.	.	.	.	.
.	.	.	.	8ggJ)	.	.	.	.	.	.	.	.	.	.	.	.	.	.	.	.
.	.	2f#X	.	(8ffL	.	2C	-bis	2c	-bis	.	2e	-bis	2g	-cem	.	.	.	.	.	.
.	.	.	.	8een)	.	.	.	.	.	.	.	.	.	.	.	.	.	.	.	.
.	.	.	.	(8dd	.	.	.	.	.	.	.	.	.	.	.	.	.	.	.	.
.	.	.	.	8ccJ)	.	.	.	.	.	.	.	.	.	.	.	.	.	.	.	.
=24	=24	=24	=24	=24	=24	=24	=24	=24	=24	=24	=24	=24	=24	=24	=24	=24	=24	=24	=24	=24
*	*	*	*	*	*	*	*	*	*	*	*	*	*	*ij	*	*	*	*	*	*
2D	.	2f	.	(8ccL	.	2D	pa-	2d	pa-	.	2f	pa-	2g	pa-	.	1ryy	.	.	.	.
.	.	.	.	8bnJ)	.	.	.	.	.	.	.	.	.	.	.	.	.	.	.	.
!	!	!	!	!LO:TX:a:t=|:problem	!	!	!	!	!	!	!	!	!	!	!	!	!	!	!	!
.	.	.	.	8bL|	.	.	.	.	.	.	.	.	.	.	.	.	.	.	.	.
!	!	!	!	!LO:TX:a:t=|:problem	!	!	!	!	!	!	!	!	!	!	!	!	!	!	!	!
.	.	.	.	8bJ|	.	.	.	.	.	.	.	.	.	.	.	.	.	.	.	.
2BBn	.	2g	.	8r	.	2BBn	-cem	2d	-cem	.	2f	-cem	2g	-cem	.	.	.	.	.	.
.	.	.	.	8ee-L	.	.	.	.	.	.	.	.	.	.	.	.	.	.	.	.
.	.	.	.	8een	.	.	.	.	.	.	.	.	.	.	.	.	.	.	.	.
.	.	.	.	8ffJ	.	.	.	.	.	.	.	.	.	.	.	.	.	.	.	.
=25	=25	=25	=25	=25	=25	=25	=25	=25	=25	=25	=25	=25	=25	=25	=25	=25	=25	=25	=25	=25
*	*	*	*	*	*	*	*ij	*	*	*	*	*ij	*	*	*	*	*	*	*	*
!	!	!	!	!	!	!LO:LB:g=original	!	!	!	!	!LO:LB:g=original	!	!	!	!	!	!	!	!	!
1C	.	2g	.	(8ffL	.	4C	do-	4c	Do-	.	4en	do-	4g	pa-	.	1ryy	.	.	.	.
.	.	.	.	8een)	.	.	.	.	.	.	.	.	.	.	.	.	.	.	.	.
.	.	.	.	(8aa	.	4C	-na	4c	-na	.	4e	-na	4g	-cem	.	.	.	.	.	.
.	.	.	.	8ggJ)	.	.	.	.	.	.	.	.	.	.	.	.	.	.	.	.
.	.	2f#X	.	8ffL	.	4C	no-	4c	no-	.	4e	no-	4g	pa-	.	.	.	.	.	.
.	.	.	.	8ee	.	.	.	.	.	.	.	.	.	.	.	.	.	.	.	.
.	.	.	.	8dd	.	4C	-bis	4c	-bis	.	4e	-bis	4g	-cem	.	.	.	.	.	.
*	*	*	*	*	*	*	*	*	*	*	*	*	*	*Xij	*	*	*	*	*	*
.	.	.	.	8ccJ	.	.	.	.	.	.	.	.	.	.	.	.	.	.	.	.
=26	=26	=26	=26	=26	=26	=26	=26	=26	=26	=26	=26	=26	=26	=26	=26	=26	=26	=26	=26	=26
!	!	!	!	!	!	!	!	!LO:LB:g=original	!	!	!	!	!	!	!	!	!	!	!	!
2D	.	2f	.	8ccL	.	2D	pa-	2Bn	pa-	.	1f	pa-	1g	Do-	.	0r	0r	.	0r	0r
.	.	.	.	8bn	.	.	.	.	.	.	.	.	.	.	.	.	.	.	.	.
.	.	.	.	8b	.	.	.	.	.	.	.	.	.	.	.	.	.	.	.	.
.	.	.	.	8bJ	.	.	.	.	.	.	.	.	.	.	.	.	.	.	.	.
2GG	.	8fL	.	2b	.	2GG	.	2d	.	.	.	.	.	.	.	.	.	.	.	.
.	.	16e-L	.	.	.	.	.	.	.	.	.	.	.	.	.	.	.	.	.	.
.	.	16fJJ	.	.	.	.	.	.	.	.	.	.	.	.	.	.	.	.	.	.
.	.	8gL	.	.	.	.	.	.	.	.	.	.	.	.	.	.	.	.	.	.
.	.	8fJ	.	.	.	.	.	.	.	.	.	.	.	.	.	.	.	.	.	.
=27	=27	=27	=27	=27	=27	=27	=27	=27	=27	=27	=27	=27	=27	=27	=27	=27	=27	=27	=27	=27
!	!	!	!	!	!	!	!	!	!	!	!LO:LB:g=original	!	!	!	!	!	!	!	!	!
!	!	!	!	!	!	!	!	!	!	!	!LO:SIC:v:s=4en	!	!LO:LB:g=original	!	!	!	!	!	!	!
4C	.	4en	.	8cc	.	4C	-cem	4c	-cem	.	4e-	-cem	4g	-na	.	.	.	.	.	.
*	*	*	*	*	*	*	*Xij	*	*	*	*	*Xij	*	*	*	*	*	*	*	*
.	.	.	.	4cc	.	.	.	.	.	.	.	.	.	.	.	.	.	.	.	.
4r	.	4r	.	.	.	4r	.	4r	.	.	4r	.	4r	.	.	.	.	.	.	.
.	.	.	.	4cc	.	.	.	.	.	.	.	.	.	.	.	.	.	.	.	.
2r	.	2r	.	.	.	2r	.	2r	.	.	2r	.	2r	.	.	.	.	.	.	.
.	.	.	.	4cc	.	.	.	.	.	.	.	.	.	.	.	.	.	.	.	.
.	.	.	.	8cc	.	.	.	.	.	.	.	.	.	.	.	.	.	.	.	.
=28	=28	=28	=28	=28	=28	=28	=28	=28	=28	=28	=28	=28	=28	=28	=28	=28	=28	=28	=28	=28
!LO:TX:t=P::problem=zbędny pusty takt&colon; B	!	!LO:TX:t=P::problem=zbędny pusty takt&colon; B	!	!LO:TX:t=P::problem=zbędny pusty takt&colon; B	!	!LO:TX:t=P:problem=zbędny pusty takt	!	!LO:TX:t=P::problem=zbędny pusty takt&colon; B	!	!	!LO:TX:t=P::problem=zbędny pusty takt&colon; B	!	!LO:TX:t=P:problem=zbędny pusty takt	!	!	!LO:TX:t=P::problem=zbędny pusty takt&colon; B	!LO:TX:t=P::problem=zbędny pusty takt&colon; B	!	!LO:TX:t=P::problem=zbędny pusty takt&colon; B	!LO:TX:t=P::problem=zbędny pusty takt&colon; B
1ryy	.	1ryy	.	1ryy	.	0r	.	1ryy	.	.	1ryy	.	0r	.	.	1ryy	1ryy	.	1ryy	1ryy
=29	=29	=29	=29	=29	=29	=29	=29	=29	=29	=29	=29	=29	=29	=29	=29	=29	=29	=29	=29	=29
!LO:LB:g=original	!	!	!	!	!LO:DY:a:t=for	!	!	!	!	!	!	!	!	!	!	!	!	!	!	!
4C	.	(8gL	.	1cc	f	.	.	1r	.	.	1r	.	.	.	.	1r	1r	.	8eeXL	8ggL
.	.	8b-X)	.	.	.	.	.	.	.	.	.	.	.	.	.	.	.	.	8gg	8bb-
4r	.	(8b-	.	.	.	.	.	.	.	.	.	.	.	.	.	.	.	.	8gg	8bb-
.	.	8gJ)	.	.	.	.	.	.	.	.	.	.	.	.	.	.	.	.	8eeJ	8ggJ
!	!	!LO:LB:g=original	!	!	!	!	!	!	!	!	!	!	!	!	!	!	!	!	!	!
4F	.	(8a/L	.	.	.	.	.	.	.	.	.	.	.	.	.	.	.	.	8ffL	8aaL
.	.	8cc)	.	.	.	.	.	.	.	.	.	.	.	.	.	.	.	.	8aa	8ccc
4r	.	(8cc/	.	.	.	.	.	.	.	.	.	.	.	.	.	.	.	.	8aa	8ccc
.	.	8a/J)	.	.	.	.	.	.	.	.	.	.	.	.	.	.	.	.	8ffJ	8aaJ
=30	=30	=30	=30	=30	=30	=30	=30	=30	=30	=30	=30	=30	=30	=30	=30	=30	=30	=30	=30	=30
*	*	*	*	*tremolo	*	*	*	*	*	*	*	*	*	*	*	*	*	*	*	*
!	!	!	!LO:DY:a:t=for	!	!	!	!	!	!	!	!	!	!	!	!	!	!	!	!	!
4En	6 5	16gLL	f	16ccLL	.	1En	Do-	1B-	Do-	.	1g	Do-	1cc	no-	.	4cc	4cc	.	1gg	1bb-
.	.	16cc	.	16bb-	.	.	.	.	.	.	.	.	.	.	.	.	.	.	.	.
.	.	16g	.	16cc	.	.	.	.	.	.	.	.	.	.	.	.	.	.	.	.
.	.	16ccJJ	.	16bb-	.	.	.	.	.	.	.	.	.	.	.	.	.	.	.	.
*	*	*rep	*	*	*	*	*	*	*	*	*	*	*	*	*	*	*	*	*	*
4G	x _	16gLL	.	16cc	.	.	.	.	.	.	.	.	.	.	.	8ccL	8ccL	.	.	.
.	.	16cc	.	16bb-	.	.	.	.	.	.	.	.	.	.	.	.	.	.	.	.
.	.	16g	.	16cc	.	.	.	.	.	.	.	.	.	.	.	8ccJ	8ccJ	.	.	.
.	.	16ccJJ	.	16bb-JJ	.	.	.	.	.	.	.	.	.	.	.	.	.	.	.	.
*	*	*Xrep	*	*	*	*	*	*	*	*	*	*	*	*	*	*	*	*	*	*
*	*	*rep	*	*	*	*	*	*	*	*	*	*	*	*	*	*	*	*	*	*
4E	x x	16gLL	.	16ccLL	.	.	.	.	.	.	.	.	.	.	.	4cc	4cc	.	.	.
.	.	16cc	.	16bb-	.	.	.	.	.	.	.	.	.	.	.	.	.	.	.	.
.	.	16g	.	16cc	.	.	.	.	.	.	.	.	.	.	.	.	.	.	.	.
.	.	16ccJJ	.	16bb-	.	.	.	.	.	.	.	.	.	.	.	.	.	.	.	.
*	*	*Xrep	*	*	*	*	*	*	*	*	*	*	*	*	*	*	*	*	*	*
*	*	*rep	*	*	*	*	*	*	*	*	*	*	*	*	*	*	*	*	*	*
4C	.	16gLL	.	16cc	.	.	.	.	.	.	.	.	.	.	.	4cc	4cc	.	.	.
.	.	16cc	.	16bb-	.	.	.	.	.	.	.	.	.	.	.	.	.	.	.	.
.	.	16g	.	16cc	.	.	.	.	.	.	.	.	.	.	.	.	.	.	.	.
.	.	16ccJJ	.	16bb-JJ	.	.	.	.	.	.	.	.	.	.	.	.	.	.	.	.
*	*	*Xrep	*	*Xtremolo	*	*	*	*	*	*	*	*	*	*	*	*	*	*	*	*
=31	=31	=31	=31	=31	=31	=31	=31	=31	=31	=31	=31	=31	=31	=31	=31	=31	=31	=31	=31	=31
!	!	!	!	!LO:TX:a:t=|:problem	!	!	!	!	!	!	!	!	!	!	!	!	!	!	!	!
4F	.	4a	.	8aaL|	.	4F	-na	4A	-na	.	4f	-na	4cc	-bis	.	4f	4f	.	4ff	4aa
!	!	!	!	!LO:TX:a:t=|:problem	!	!	!	!	!	!	!	!	!	!	!	!	!	!	!	!
.	.	.	.	8ccc|	.	.	.	.	.	.	.	.	.	.	.	.	.	.	.	.
4r	.	4r	.	(8gg	.	4r	.	4r	.	.	4r	.	4r	.	.	4r	4r	.	4r	4r
.	.	.	.	8aaJ)	.	.	.	.	.	.	.	.	.	.	.	.	.	.	.	.
!	!	!	!	!LO:SIC:v:s=8een\L	!LO:DY:a:t=p.	!	!	!	!	!	!	!	!	!	!	!	!	!	!	!
2r	.	2r	.	8ee-L	p	2r	.	2r	.	.	2r	.	2r	.	.	2r	2r	.	2r	2r
.	.	.	.	8ffJ	.	.	.	.	.	.	.	.	.	.	.	.	.	.	.	.
!	!	!	!	!LO:TX:a:t=|:problem	!	!	!	!	!	!	!	!	!	!	!	!	!	!	!	!
.	.	.	.	8bnL|	.	.	.	.	.	.	.	.	.	.	.	.	.	.	.	.
!	!	!	!	!LO:TX:a:t=|:problem	!	!	!	!	!	!	!	!	!	!	!	!	!	!	!	!
.	.	.	.	8ccJ|	.	.	.	.	.	.	.	.	.	.	.	.	.	.	.	.
=32	=32	=32	=32	=32	=32	=32	=32	=32	=32	=32	=32	=32	=32	=32	=32	=32	=32	=32	=32	=32
!	!	!	!LO:DY:a:t=p.	!	!	!	!	!	!	!	!	!	!LO:TX:t=P:problem=brak taktu	!	!	!	!	!	!	!
4C	.	(8gL	p	4cc	.	1r	.	1r	.	.	1r	.	1ryy	.	.	1r	1r	.	8eeXL	8ggL
.	.	8b-)	.	.	.	.	.	.	.	.	.	.	.	.	.	.	.	.	8gg	8bb-
4r	.	(8b-	.	2cc	.	.	.	.	.	.	.	.	.	.	.	.	.	.	8gg	8bb-
.	.	8gJ)	.	.	.	.	.	.	.	.	.	.	.	.	.	.	.	.	8eeJ	8ggJ
4F	.	(8a/L	.	.	.	.	.	.	.	.	.	.	.	.	.	.	.	.	8ffL	8aaL
.	.	8cc/)	.	.	.	.	.	.	.	.	.	.	.	.	.	.	.	.	8aa	8ccc
4r	.	(8cc/	.	4cc	.	.	.	.	.	.	.	.	.	.	.	.	.	.	8aa	8ccc
.	.	8a/J)	.	.	.	.	.	.	.	.	.	.	.	.	.	.	.	.	8ffJ	8aaJ
=33	=33	=33	=33	=33	=33	=33	=33	=33	=33	=33	=33	=33	=33	=33	=33	=33	=33	=33	=33	=33
*	*	*tremolo	*	*tremolo	*	*	*	*	*	*	*	*	*	*	*	*	*	*	*	*
!	!	!	!LO:DY:a:t=for	!	!LO:DY:a:t=for.	!	!	!	!	!	!	!	!	!	!	!	!	!	!	!
4En	6 5	8g\L	f	16ccLL	f	2E-	Do-	2B-	no-	.	2g	no-	2cc	Do-	.	1cc	1cc	.	1gg	1bb-
.	.	.	.	16bb-	.	.	.	.	.	.	.	.	.	.	.	.	.	.	.	.
.	.	8cc\	.	16cc	.	.	.	.	.	.	.	.	.	.	.	.	.	.	.	.
.	.	.	.	16bb-	.	.	.	.	.	.	.	.	.	.	.	.	.	.	.	.
4G	x _	8g\	.	16cc	.	.	.	.	.	.	.	.	.	.	.	.	.	.	.	.
.	.	.	.	16bb-	.	.	.	.	.	.	.	.	.	.	.	.	.	.	.	.
.	.	8cc\J	.	16cc	.	.	.	.	.	.	.	.	.	.	.	.	.	.	.	.
.	.	.	.	16bb-JJ	.	.	.	.	.	.	.	.	.	.	.	.	.	.	.	.
4E	x x	8aL	.	16ccLL	.	2E-	-na	2B-	-bis	.	2g	-bis	2cc	-na	.	.	.	.	.	.
.	.	.	.	16bb-	.	.	.	.	.	.	.	.	.	.	.	.	.	.	.	.
.	.	8cc	.	16cc	.	.	.	.	.	.	.	.	.	.	.	.	.	.	.	.
.	.	.	.	16bb-	.	.	.	.	.	.	.	.	.	.	.	.	.	.	.	.
4C\	.	8a	.	16cc	.	.	.	.	.	.	.	.	.	.	.	.	.	.	.	.
.	.	.	.	16bb-	.	.	.	.	.	.	.	.	.	.	.	.	.	.	.	.
.	.	8ccJ	.	16cc	.	.	.	.	.	.	.	.	.	.	.	.	.	.	.	.
.	.	.	.	16bb-JJ	.	.	.	.	.	.	.	.	.	.	.	.	.	.	.	.
*tremolo	*	*	*	*Xtremolo	*	*	*	*	*	*	*	*	*	*	*	*	*	*	*	*
=34	=34	=34	=34	=34	=34	=34	=34	=34	=34	=34	=34	=34	=34	=34	=34	=34	=34	=34	=34	=34
!	!	!	!	!LO:LB:g=original	!	!	!	!	!	!	!	!	!	!	!	!	!	!	!	!
8FL	.	16aLL	.	16aaLL	.	2F	no-	2A	pa-	.	2a	pa-	2cc	no-	.	4f	4cc	.	2ff	2aa
.	.	16a	.	16gg	.	.	.	.	.	.	.	.	.	.	.	.	.	.	.	.
8F	.	16a	.	16ff	.	.	.	.	.	.	.	.	.	.	.	.	.	.	.	.
.	.	16a	.	16ggJJ	.	.	.	.	.	.	.	.	.	.	.	.	.	.	.	.
8F	.	16a	.	16aaLL	.	.	.	.	.	.	.	.	.	.	.	4f	4cc	.	.	.
.	.	16a	.	16gg	.	.	.	.	.	.	.	.	.	.	.	.	.	.	.	.
8FJ	.	16a	.	16ff	.	.	.	.	.	.	.	.	.	.	.	.	.	.	.	.
.	.	16aJJ	.	16ggJJ	.	.	.	.	.	.	.	.	.	.	.	.	.	.	.	.
8AL	.	16ccLL	.	8aaL	.	2A	-bis	2c	-cem	.	2f	-cem	2cc	-bis	.	4f	4cc	.	2cc	2ff
.	.	16cc	.	.	.	.	.	.	.	.	.	.	.	.	.	.	.	.	.	.
8A	.	16cc	.	8ff	.	.	.	.	.	.	.	.	.	.	.	.	.	.	.	.
.	.	16cc	.	.	.	.	.	.	.	.	.	.	.	.	.	.	.	.	.	.
8A	.	16cc	.	8een	.	.	.	.	.	.	.	.	.	.	.	4r	4r	.	.	.
.	.	16cc	.	.	.	.	.	.	.	.	.	.	.	.	.	.	.	.	.	.
8AJ	.	16cc	.	8ffJ	.	.	.	.	.	.	.	.	.	.	.	.	.	.	.	.
.	.	16ccJJ	.	.	.	.	.	.	.	.	.	.	.	.	.	.	.	.	.	.
=35	=35	=35	=35	=35	=35	=35	=35	=35	=35	=35	=35	=35	=35	=35	=35	=35	=35	=35	=35	=35
!	!	!	!	!	!	!LO:LB:g=original	!	!	!	!	!	!	!	!	!	!LO:LB:g=original	!	!	!	!
8B-L	.	16fLL	.	16ee-LL	.	2B-	pa-	2B-	Do-	.	2f	do-	2dd	pa-	.	4b-	1dd	.	4dd	4dd
.	.	16f	.	16dd	.	.	.	.	.	.	.	.	.	.	.	.	.	.	.	.
8B-	.	16f	.	16cc#X	.	.	.	.	.	.	.	.	.	.	.	.	.	.	.	.
.	.	16f	.	16ddJJ	.	.	.	.	.	.	.	.	.	.	.	.	.	.	.	.
8B-	.	16f	.	16ee-LL	.	.	.	.	.	.	.	.	.	.	.	4b-	.	.	4r	4r
.	.	16f	.	16dd	.	.	.	.	.	.	.	.	.	.	.	.	.	.	.	.
8B-J	.	16f	.	16cc#	.	.	.	.	.	.	.	.	.	.	.	.	.	.	.	.
.	.	16fJJ	.	16ddJJ	.	.	.	.	.	.	.	.	.	.	.	.	.	.	.	.
8BB-L	.	16fLL	.	8ffL	.	2BB-	-cem	2B-	-na	.	2f	-na	2dd	-cem	.	4b-	.	.	2r	2r
.	.	16f	.	.	.	.	.	.	.	.	.	.	.	.	.	.	.	.	.	.
8BB-	.	16f	.	8dd	.	.	.	.	.	.	.	.	.	.	.	.	.	.	.	.
.	.	16f	.	.	.	.	.	.	.	.	.	.	.	.	.	.	.	.	.	.
8BB-	.	16f	.	8cc#	.	.	.	.	.	.	.	.	.	.	.	4r	.	.	.	.
.	.	16f	.	.	.	.	.	.	.	.	.	.	.	.	.	.	.	.	.	.
8BB-J	.	16f	.	8b-J	.	.	.	.	.	.	.	.	.	.	.	.	.	.	.	.
.	.	16fJJ	.	.	.	.	.	.	.	.	.	.	.	.	.	.	.	.	.	.
=36	=36	=36	=36	=36	=36	=36	=36	=36	=36	=36	=36	=36	=36	=36	=36	=36	=36	=36	=36	=36
*	*	*	*	*tremolo	*	*	*ij	*	*	*	*	*	*	*	*	*	*	*	*	*
!LO:LB:g=original	!	!LO:LB:g=original	!	!	!	!	!	!LO:LB:g=original	!	!	!LO:N:vis=2	!	!	!	!	!	!	!	!	!
8CL	6 4	16fLL	.	16aLL	.	2C	pa-	2c	no-	.	2.a	no-	2.ff	Do-	.	1cc	1cc	.	2.ff	2aa
.	.	16f	.	16a	.	.	.	.	.	.	.	.	.	.	.	.	.	.	.	.
8C	.	16f	.	16a	.	.	.	.	.	.	.	.	.	.	.	.	.	.	.	.
.	.	16fJJ	.	16aJJ	.	.	.	.	.	.	.	.	.	.	.	.	.	.	.	.
8C	.	16aLL	.	16ffLL	.	.	.	.	.	.	.	.	.	.	.	.	.	.	.	.
.	.	16a	.	16ff	.	.	.	.	.	.	.	.	.	.	.	.	.	.	.	.
8CJ	.	16a	.	16ff	.	.	.	.	.	.	.	.	.	.	.	.	.	.	.	.
.	.	16aJJ	.	16ff	.	.	.	.	.	.	.	.	.	.	.	.	.	.	.	.
8CL	5 4	16aLL	.	16ff	.	2C	-cem	2c	-bis	.	.	.	.	.	.	.	.	.	.	2gg
*	*	*	*	*	*	*	*Xij	*	*	*	*	*	*	*	*	*	*	*	*	*
.	.	16a	.	16ff	.	.	.	.	.	.	.	.	.	.	.	.	.	.	.	.
8C	.	16a	.	16ff	.	.	.	.	.	.	.	.	.	.	.	.	.	.	.	.
.	.	16a	.	16ffJJ	.	.	.	.	.	.	.	.	.	.	.	.	.	.	.	.
!	!	!	!	!	!	!	!	!	!	!	!LO:N:vis=2	!	!	!	!	!	!	!	!	!
8C	.	16a	.	16eenLL	.	.	.	.	.	.	4g	-bis	4een	-na	.	.	.	.	4eeX	.
.	.	16a	.	16ee	.	.	.	.	.	.	.	.	.	.	.	.	.	.	.	.
8CJ	.	16a	.	16ee	.	.	.	.	.	.	.	.	.	.	.	.	.	.	.	.
.	.	16aJJ	.	16eeJJ	.	.	.	.	.	.	.	.	.	.	.	.	.	.	.	.
*	*	*	*	*Xtremolo	*	*	*	*	*	*	*	*	*	*	*	*	*	*	*	*
=37	=37	=37	=37	=37	=37	=37	=37	=37	=37	=37	=37	=37	=37	=37	=37	=37	=37	=37	=37	=37
!	!	!	!	!	!	!	!	!	!	!	!	!	!	!	!	!	!LO:LB:g=original	!	!LO:LB:g=original	!LO:LB:g=original
8FL	.	16aLL	.	16ffLL	.	2F	Do-	2d	pa-	.	2a	pa-	2ff	no-	.	4f	4cc	.	4ff	4ff
.	.	16a	.	16gg	.	.	.	.	.	.	.	.	.	.	.	.	.	.	.	.
8F	.	16a	.	16aa	.	.	.	.	.	.	.	.	.	.	.	.	.	.	.	.
.	.	16a	.	16ggJJ	.	.	.	.	.	.	.	.	.	.	.	.	.	.	.	.
8F	.	16a	.	16ffLL	.	.	.	.	.	.	.	.	.	.	.	4f	4cc	.	4r	4r
.	.	16a	.	16gg	.	.	.	.	.	.	.	.	.	.	.	.	.	.	.	.
8FJ	.	16a	.	16aa	.	.	.	.	.	.	.	.	.	.	.	.	.	.	.	.
.	.	16aJJ	.	16ggJJ	.	.	.	.	.	.	.	.	.	.	.	.	.	.	.	.
8AL	x 6	16fLL	.	8ffL	.	2A	-na	2c	-cem	.	2f	-cem	2ff	-bis	.	4f	4cc	.	2cc	2ff
.	.	16f	.	.	.	.	.	.	.	.	.	.	.	.	.	.	.	.	.	.
8A	.	16f	.	8ee-X	.	.	.	.	.	.	.	.	.	.	.	.	.	.	.	.
.	.	16f	.	.	.	.	.	.	.	.	.	.	.	.	.	.	.	.	.	.
8A	.	16f	.	8dd	.	.	.	.	.	.	.	.	.	.	.	4r	4r	.	.	.
.	.	16f	.	.	.	.	.	.	.	.	.	.	.	.	.	.	.	.	.	.
8AJ	.	16f	.	8ccJ	.	.	.	.	.	.	.	.	.	.	.	.	.	.	.	.
.	.	16fJJ	.	.	.	.	.	.	.	.	.	.	.	.	.	.	.	.	.	.
=38	=38	=38	=38	=38	=38	=38	=38	=38	=38	=38	=38	=38	=38	=38	=38	=38	=38	=38	=38	=38
*	*	*	*	*	*	*	*	*	*ij	*	*	*	*	*	*	*	*	*	*	*
!	!	!	!	!LO:LB:g=original	!	!	!	!	!	!	!LO:LB:g=original	!	!	!	!	!	!	!	!	!
8B-L	.	16gLL	.	16ddLL	.	2B-	no-	2B-	do-	.	2f	do-	2dd	pa-	.	4b-	4dd	.	1dd	1ff
.	.	16g	.	16ee-	.	.	.	.	.	.	.	.	.	.	.	.	.	.	.	.
8B-	.	16g	.	16ff	.	.	.	.	.	.	.	.	.	.	.	.	.	.	.	.
.	.	16g	.	16ee-JJ	.	.	.	.	.	.	.	.	.	.	.	.	.	.	.	.
8B-	.	16g	.	16ddLL	.	.	.	.	.	.	.	.	.	.	.	4b-	4dd	.	.	.
.	.	16g	.	16ee-	.	.	.	.	.	.	.	.	.	.	.	.	.	.	.	.
8B-J	.	16g	.	16ff	.	.	.	.	.	.	.	.	.	.	.	.	.	.	.	.
.	.	16gJJ	.	16ee-JJ	.	.	.	.	.	.	.	.	.	.	.	.	.	.	.	.
8BB-L	.	16gLL	.	8ddL	.	2BB-	-bis	2d	-na	.	2f	-na	2dd	-cem	.	4b-	4dd	.	.	.
.	.	16g	.	.	.	.	.	.	.	.	.	.	.	.	.	.	.	.	.	.
8BB-	.	16g	.	8b-	.	.	.	.	.	.	.	.	.	.	.	.	.	.	.	.
.	.	16g	.	.	.	.	.	.	.	.	.	.	.	.	.	.	.	.	.	.
8BB-	.	16g	.	8a	.	.	.	.	.	.	.	.	.	.	.	4r	4r	.	.	.
.	.	16g	.	.	.	.	.	.	.	.	.	.	.	.	.	.	.	.	.	.
8BB-J	.	16g	.	8gJ	.	.	.	.	.	.	.	.	.	.	.	.	.	.	.	.
.	.	16gJJ	.	.	.	.	.	.	.	.	.	.	.	.	.	.	.	.	.	.
=39	=39	=39	=39	=39	=39	=39	=39	=39	=39	=39	=39	=39	=39	=39	=39	=39	=39	=39	=39	=39
*Xtremolo	*	*	*	*tremolo	*	*	*	*	*	*	*	*	*	*	*	*	*	*	*	*
!	!	!	!	!	!	!	!	!	!	!	!	!	!LO:LB:g=original	!	!	!	!	!	!	!
4F	.	16fLL	.	16aLL	.	4F	pa-	4c	no-	.	4a	no-	4cc	no-	.	4cc	2ff	.	2a	2ff
.	.	16f	.	16a	.	.	.	.	.	.	.	.	.	.	.	.	.	.	.	.
.	.	16f	.	16a	.	.	.	.	.	.	.	.	.	.	.	.	.	.	.	.
.	.	16fJJ	.	16aJJ	.	.	.	.	.	.	.	.	.	.	.	.	.	.	.	.
4B-	.	16aLL	.	16ffLL	.	4d	-cem	4d	-bis	.	4a	-bis	4ff	-bis	.	4dd	.	.	.	.
.	.	16a	.	16ff	.	.	.	.	.	.	.	.	.	.	.	.	.	.	.	.
.	.	16a	.	16ff	.	.	.	.	.	.	.	.	.	.	.	.	.	.	.	.
.	.	16aJJ	.	16ffJJ	.	.	.	.	.	.	.	.	.	.	.	.	.	.	.	.
4B-	6 5	16b-LL/	.	16ggLL	.	4B-	pa-	4d	pa-	.	4b-	pa-	4gg	pa-	.	4dd	4gg	.	4b-/	4gg
.	.	16b-/	.	16gg	.	.	.	.	.	.	.	.	.	.	.	.	.	.	.	.
.	.	16b-/	.	16gg	.	.	.	.	.	.	.	.	.	.	.	.	.	.	.	.
.	.	16b-JJ/	.	16ggJJ	.	.	.	.	.	.	.	.	.	.	.	.	.	.	.	.
4c	x 5	16gLL	.	16eenLL	.	4c	.	4c	.	.	4g	.	4een	.	.	4cc	4eeX	.	4g	4eeX
.	.	16g	.	16ee	.	.	.	.	.	.	.	.	.	.	.	.	.	.	.	.
.	.	16g	.	16ee	.	.	.	.	.	.	.	.	.	.	.	.	.	.	.	.
.	.	16gJJ	.	16eeJJ	.	.	.	.	.	.	.	.	.	.	.	.	.	.	.	.
*	*	*Xtremolo	*	*Xtremolo	*	*	*	*	*	*	*	*	*	*	*	*	*	*	*	*
=40	=40	=40	=40	=40	=40	=40	=40	=40	=40	=40	=40	=40	=40	=40	=40	=40	=40	=40	=40	=40
4F	.	4f 4a	.	4a 4ff	.	4F	-cem	4c	-cem	.	4a	-cem	4ff	-cem	.	4f	4ff	.	4a/	4ff
*	*	*	*	*	*	*	*	*	*Xij	*	*	*	*	*	*	*	*	*	*	*
4F	.	4f 4a	.	4a 4ff	.	4r	.	4r	.	.	4r	.	4r	.	.	4f	4ff	.	4a/	4ff
4F	.	4f 4a	.	4a 4ff	.	2r	.	2r	.	.	2r	.	2r	.	.	4f	4ff	.	4a/	4ff
4r	.	4r	.	4r	.	.	.	.	.	.	.	.	.	.	.	4r	4r	.	4r	4r
=41	=41	=41	=41	=41	=41	=41	=41	=41	=41	=41	=41	=41	=41	=41	=41	=41	=41	=41	=41	=41
4F	.	0r	.	0r	.	2F	do-	2A	Do-	.	2f	do-	2cc	Do-	.	00r	00r	.	2a	2cc
4r	.	.	.	.	.	.	.	.	.	.	.	.	.	.	.	.	.	.	.	.
4BB-	.	.	.	.	.	2B-	-na	2B-	-na	.	2f	-na	2dd	-na	.	.	.	.	2b-	2dd
4r	.	.	.	.	.	.	.	.	.	.	.	.	.	.	.	.	.	.	.	.
=42	=42	=42	=42	=42	=42	=42	=42	=42	=42	=42	=42	=42	=42	=42	=42	=42	=42	=42	=42	=42
4AA	.	.	.	.	.	2A	no-	2c	no-	.	2f	no-	2ee-X	no-	.	.	.	.	2cc	2ee-
4r	.	.	.	.	.	.	.	.	.	.	.	.	.	.	.	.	.	.	.	.
4BB-	.	.	.	.	.	2B-	-bis	2B-	-bis	.	2f	-bis	2dd	-bis	.	.	.	.	2b-	2dd
4r	.	.	.	.	.	.	.	.	.	.	.	.	.	.	.	.	.	.	.	.
=43	=43	=43	=43	=43	=43	=43	=43	=43	=43	=43	=43	=43	=43	=43	=43	=43	=43	=43	=43	=43
!LO:LB:g=original	!	!	!	!	!	!LO:LB:g=original	!	!LO:LB:g=original	!	!	!	!	!	!	!	!	!	!	!	!
4F	.	1r	.	1r	.	4F	pa-	4A	pa-	.	4f	pa-	4cc	pa-	.	.	.	.	4a	4cc
4r	.	.	.	.	.	4F	-cem	4d	.	.	4f	.	4ff	.	.	.	.	.	4dd	4ff
4AA	.	.	.	.	.	4A	pa-	4c	.	.	2f	.	4ee-	.	.	.	.	.	4cc	4ee-
4BB-	.	.	.	.	.	4B-	.	4B-	.	.	.	.	4dd	.	.	.	.	.	4b-	4dd
=44	=44	=44	=44	=44	=44	=44	=44	=44	=44	=44	=44	=44	=44	=44	=44	=44	=44	=44	=44	=44
4FF	.	8r	.	8r	.	4F	-cem	4A	-cem	.	4f	-cem	4cc	-cem	.	.	.	.	4a	4cc
!	!	!	!LO:DY:a:t=p.:rj	!	!LO:DY:a:t=p.	!	!	!	!	!	!	!	!	!	!	!	!	!	!	!
.	.	8fL	p	8fL	p	.	.	.	.	.	.	.	.	.	.	.	.	.	.	.
4r	.	8f	.	8f	.	4r	.	4r	.	.	4r	.	4r	.	.	.	.	.	4r	4r
.	.	8fJ	.	8fJ	.	.	.	.	.	.	.	.	.	.	.	.	.	.	.	.
2r	.	(8gL	.	8gL	.	2r	.	2r	.	.	2r	.	2r	.	.	.	.	.	2r	2r
.	.	8f)	.	8fJ	.	.	.	.	.	.	.	.	.	.	.	.	.	.	.	.
!	!	!LO:N:acc=#	!	!	!	!	!	!	!	!	!	!	!	!	!	!	!	!	!	!
.	.	8en|	.	8enL	.	.	.	.	.	.	.	.	.	.	.	.	.	.	.	.
!	!	!LO:TX:b:t=|:problem	!	!	!	!	!	!	!	!	!	!	!	!	!	!	!	!	!	!
.	.	8fJ|	.	8fJ	.	.	.	.	.	.	.	.	.	.	.	.	.	.	.	.
=45	=45	=45	=45	=45	=45	=45	=45	=45	=45	=45	=45	=45	=45	=45	=45	=45	=45	=45	=45	=45
4F	.	0r	.	00r	.	2F	Do-	2A	Do-	.	2f	do-	2cc	Do-	.	00r	00r	.	2a	2cc
4r	.	.	.	.	.	.	.	.	.	.	.	.	.	.	.	.	.	.	.	.
4BB-	.	.	.	.	.	2B-	-na	2B-	-na	.	2f	-na	2dd	-na	.	.	.	.	2b-	2dd
4r	.	.	.	.	.	.	.	.	.	.	.	.	.	.	.	.	.	.	.	.
=46	=46	=46	=46	=46	=46	=46	=46	=46	=46	=46	=46	=46	=46	=46	=46	=46	=46	=46	=46	=46
4AA	.	.	.	.	.	2A	no-	2c	no-	.	2f	no-	2ee-	no-	.	.	.	.	2cc	2ee-
4r	.	.	.	.	.	.	.	.	.	.	.	.	.	.	.	.	.	.	.	.
4BB-	.	.	.	.	.	2B-	-bis	2B-	-bis	.	2f	-bis	2dd	-bis	.	.	.	.	2b-	2dd
4r	.	.	.	.	.	.	.	.	.	.	.	.	.	.	.	.	.	.	.	.
=47	=47	=47	=47	=47	=47	=47	=47	=47	=47	=47	=47	=47	=47	=47	=47	=47	=47	=47	=47	=47
!	!	!	!	!	!	!	!	!	!	!	!LO:LB:g=original	!	!LO:LB:g=original	!	!	!	!	!	!	!LO:LB:g=original
4F	.	1r	.	.	.	4A	pa-	4A	pa-	.	4a	pa-	4cc	pa-	.	.	.	.	4a	4cc
4r	.	.	.	.	.	4B-	-cem	4B-	.	.	4b-	.	4dd	.	.	.	.	.	4b-	4dd
*	*	*	*	*	*	*	*ij	*	*	*	*	*	*	*	*	*	*	*	*	*
4C	.	.	.	.	.	4c	pa-	2c	.	.	4a	.	4cc	.	.	.	.	.	4a	4cc
4r	.	.	.	.	.	4C	.	.	.	.	4g	.	4b-	.	.	.	.	.	4g\	4b-
=48	=48	=48	=48	=48	=48	=48	=48	=48	=48	=48	=48	=48	=48	=48	=48	=48	=48	=48	=48	=48
!	!	!	!LO:DY:a:t=p.	!	!	!	!	!	!	!	!	!	!	!	!	!	!	!	!LO:LB:g=original	!
4FF	.	8f	p	.	.	4F	-cem	4c	-cem	.	4f	-cem	4a	-cem	.	.	.	.	4f	4a
*	*	*	*	*	*	*	*Xij	*	*	*	*	*	*	*	*	*	*	*	*	*
.	.	4f	.	.	.	.	.	.	.	.	.	.	.	.	.	.	.	.	.	.
4r	.	.	.	.	.	4r	.	4r	.	.	4r	.	4r	.	.	.	.	.	4r	4r
.	.	4f	.	.	.	.	.	.	.	.	.	.	.	.	.	.	.	.	.	.
2r	.	.	.	.	.	2r	.	2r	.	.	2r	.	2r	.	.	.	.	.	2r	2r
.	.	4f	.	.	.	.	.	.	.	.	.	.	.	.	.	.	.	.	.	.
.	.	8f	.	.	.	.	.	.	.	.	.	.	.	.	.	.	.	.	.	.
=49	=49	=49	=49	=49	=49	=49	=49	=49	=49	=49	=49	=49	=49	=49	=49	=49	=49	=49	=49	=49
!	!	!LO:LB:g=original	!	!LO:LB:g=original	!	!	!	!	!	!	!	!	!	!	!	!	!	!	!	!
4F	.	4f	.	8r	.	1r	.	1r	.	.	1r	.	1ryy	.	.	1r	1r	.	1f	1ff
!	!	!	!	!LO:TX:a:t=|:problem	!	!	!	!	!	!	!	!	!	!	!	!	!	!	!	!
.	.	.	.	8ccL|	.	.	.	.	.	.	.	.	.	.	.	.	.	.	.	.
4r	.	2f	.	(8ee-X	.	.	.	.	.	.	.	.	.	.	.	.	.	.	.	.
.	.	.	.	8ccJ)	.	.	.	.	.	.	.	.	.	.	.	.	.	.	.	.
4BB-	.	.	.	8r	.	.	.	.	.	.	.	.	.	.	.	.	.	.	.	.
!	!	!	!	!LO:TX:a:t=|:problem	!	!	!	!	!	!	!	!	!	!	!	!	!	!	!	!
.	.	.	.	8ddL|	.	.	.	.	.	.	.	.	.	.	.	.	.	.	.	.
4r	.	4f	.	(8ff	.	.	.	.	.	.	.	.	.	.	.	.	.	.	.	.
.	.	.	.	8ddJ)	.	.	.	.	.	.	.	.	.	.	.	.	.	.	.	.
=50	=50	=50	=50	=50	=50	=50	=50	=50	=50	=50	=50	=50	=50	=50	=50	=50	=50	=50	=50	=50
*	*	*	*	*^	*	*	*	*	*	*	*	*	*	*	*	*	*	*	*	*
!LO:LB:g=original	!	!	!	!	!	!	!	!	!	!	!	!	!	!	!	!	!	!	!LO:DY:a:t=p.:rj	!	!
4A	6 5	8f	.	8ee-	1f	.	1A	Do-	1c	Do-	.	1f	Do-	1ee-	Do-	.	4f	4cc	p	1cc	1ee-
.	.	4f	.	4ee-	.	.	.	.	.	.	.	.	.	.	.	.	.	.	.	.	.
4c	x _	.	.	.	.	.	.	.	.	.	.	.	.	.	.	.	4r	4r	.	.	.
.	.	4f	.	4ee-	.	.	.	.	.	.	.	.	.	.	.	.	.	.	.	.	.
4A	x x	.	.	.	.	.	.	.	.	.	.	.	.	.	.	.	4f	4cc	.	.	.
.	.	4f	.	4ee-	.	.	.	.	.	.	.	.	.	.	.	.	.	.	.	.	.
4F	.	.	.	.	.	.	.	.	.	.	.	.	.	.	.	.	4r	4r	.	.	.
.	.	8f	.	8ee-	.	.	.	.	.	.	.	.	.	.	.	.	.	.	.	.	.
*	*	*	*	*v	*v	*	*	*	*	*	*	*	*	*	*	*	*	*	*	*	*
=51	=51	=51	=51	=51	=51	=51	=51	=51	=51	=51	=51	=51	=51	=51	=51	=51	=51	=51	=51	=51
!	!	!	!	!	!	!	!	!LO:LB:g=original	!	!	!	!	!	!	!	!	!	!	!	!
4B-	.	4f	.	8ddL	.	4B-	-na	4B-	-na	.	4f	-na	4dd	-na	.	4b-	4dd	.	4b-	4dd
.	.	.	.	8ffJ	.	.	.	.	.	.	.	.	.	.	.	.	.	.	.	.
4r	.	4r	.	8ccL	.	4r	.	4r	.	.	4r	.	4r	.	.	4r	4r	.	4r	4r
.	.	.	.	8ddJ	.	.	.	.	.	.	.	.	.	.	.	.	.	.	.	.
2r	.	2r	.	8aL	.	2r	.	2r	.	.	2r	.	2r	.	.	2r	2r	.	2r	2r
.	.	.	.	8b-J	.	.	.	.	.	.	.	.	.	.	.	.	.	.	.	.
.	.	.	.	8enL	.	.	.	.	.	.	.	.	.	.	.	.	.	.	.	.
.	.	.	.	8fJ	.	.	.	.	.	.	.	.	.	.	.	.	.	.	.	.
=52	=52	=52	=52	=52	=52	=52	=52	=52	=52	=52	=52	=52	=52	=52	=52	=52	=52	=52	=52	=52
!LO:TX:t=P:problem=zbędna powtórka taktu cor 1	!	!LO:TX:t=P:problem=zbędna powtórka taktu cor 1	!	!LO:TX:t=P:problem=zbędna powtórka taktu cor 1	!	!LO:TX:t=P:problem=zbędna powtórka taktu cor 1	!	!LO:TX:t=P:problem=zbędna powtórka taktu cor 1	!	!	!LO:TX:t=P:problem=zbędna powtórka taktu cor 1	!	!LO:TX:t=P:problem=zbędna powtórka taktu cor 1	!	!	!LO:TX:t=P:problem=brak taktu	!LO:TX:t=P:problem=zbędna powtórka taktu	!	!LO:TX:t=P:problem=zbędna powtórka taktu cor 1	!LO:TX:t=P:problem=zbędna powtórka taktu cor 1
1ryy	.	1ryy	.	1ryy	.	1ryy	.	1ryy	.	.	1ryy	.	1ryy	.	.	1ryy	4dd	.	1ryy	1ryy
.	.	.	.	.	.	.	.	.	.	.	.	.	.	.	.	.	4r	.	.	.
.	.	.	.	.	.	.	.	.	.	.	.	.	.	.	.	.	2r	.	.	.
=53	=53	=53	=53	=53	=53	=53	=53	=53	=53	=53	=53	=53	=53	=53	=53	=53	=53	=53	=53	=53
!	!	!	!	!	!	!LO:LB:g=original	!	!	!	!	!LO:TX:t=P:problem=takt dopisany ołówkiem	!	!	!	!	!	!	!	!	!
4F	.	1f	.	8r	.	1r	.	1r	.	.	1r	.	1r	.	.	1r	1r	.	1f	1ff
!	!	!	!	!LO:TX:a:t=|:problem	!	!	!	!	!	!	!	!	!	!	!	!	!	!	!	!
.	.	.	.	8ccL|	.	.	.	.	.	.	.	.	.	.	.	.	.	.	.	.
4r	.	.	.	(8ee-X	.	.	.	.	.	.	.	.	.	.	.	.	.	.	.	.
.	.	.	.	8ccJ)	.	.	.	.	.	.	.	.	.	.	.	.	.	.	.	.
4BB-	.	.	.	8r	.	.	.	.	.	.	.	.	.	.	.	.	.	.	.	.
!	!	!	!	!LO:TX:a:t=|:problem	!	!	!	!	!	!	!	!	!	!	!	!	!	!	!	!
.	.	.	.	8ddL|	.	.	.	.	.	.	.	.	.	.	.	.	.	.	.	.
4r	.	.	.	(8ff	.	.	.	.	.	.	.	.	.	.	.	.	.	.	.	.
.	.	.	.	8ddJ)	.	.	.	.	.	.	.	.	.	.	.	.	.	.	.	.
=54	=54	=54	=54	=54	=54	=54	=54	=54	=54	=54	=54	=54	=54	=54	=54	=54	=54	=54	=54	=54
*	*	*	*	*^	*	*	*	*	*	*	*	*	*	*	*	*	*	*	*	*
4A	6 5	8f	.	8ee-	1f	.	1A	no-	1c	no-	.	1f	no-	1ee-	no-	.	4f	4cc	.	1cc	1ee-
.	.	4f	.	4ee-	.	.	.	.	.	.	.	.	.	.	.	.	.	.	.	.	.
4c	.	.	.	.	.	.	.	.	.	.	.	.	.	.	.	.	4r	4r	.	.	.
.	.	4f	.	4ee-	.	.	.	.	.	.	.	.	.	.	.	.	.	.	.	.	.
4A	.	.	.	.	.	.	.	.	.	.	.	.	.	.	.	.	4f	4cc	.	.	.
.	.	4f	.	4ee-	.	.	.	.	.	.	.	.	.	.	.	.	.	.	.	.	.
4F	.	.	.	.	.	.	.	.	.	.	.	.	.	.	.	.	4r	4r	.	.	.
.	.	8f	.	8ee-	.	.	.	.	.	.	.	.	.	.	.	.	.	.	.	.	.
*	*	*	*	*v	*v	*	*	*	*	*	*	*	*	*	*	*	*	*	*	*	*
=55	=55	=55	=55	=55	=55	=55	=55	=55	=55	=55	=55	=55	=55	=55	=55	=55	=55	=55	=55	=55
!	!	!	!	!LO:LB:g=original	!	!	!	!	!	!	!	!	!	!	!	!	!	!	!	!
4B-	.	4f	.	(8ddL	.	4B-	-bis	4B-	-bis	.	4f	-bis	4dd	-bis	.	4b-	4dd	.	4b-	4dd
.	.	.	.	8ff)	.	.	.	.	.	.	.	.	.	.	.	.	.	.	.	.
4r	.	4r	.	8een	.	4r	.	4r	.	.	4r	.	4r	.	.	4r	4r	.	4r	4r
.	.	.	.	8ffJ	.	.	.	.	.	.	.	.	.	.	.	.	.	.	.	.
2r	.	2r	.	8ccL	.	2r	.	2r	.	.	2r	.	2r	.	.	2r	2r	.	2r	2r
.	.	.	.	8dd	.	.	.	.	.	.	.	.	.	.	.	.	.	.	.	.
.	.	.	.	8a	.	.	.	.	.	.	.	.	.	.	.	.	.	.	.	.
.	.	.	.	8b-J	.	.	.	.	.	.	.	.	.	.	.	.	.	.	.	.
=56	=56	=56	=56	=56	=56	=56	=56	=56	=56	=56	=56	=56	=56	=56	=56	=56	=56	=56	=56	=56
*	*	*^	*	*	*	*	*	*	*	*	*	*	*	*	*	*	*	*	*	*
4BB-	7 3-	8f	1B-	.	8a-X	.	1D	no-	1B-	pa-	.	1f	pa-	1a-X	pa-	.	4B-	4b-	.	1ff	1aa-X
.	.	4f	.	.	4a-	.	.	.	.	.	.	.	.	.	.	.	.	.	.	.	.
4F	.	.	.	.	.	.	.	.	.	.	.	.	.	.	.	.	4r	4r	.	.	.
.	.	4f	.	.	4a-	.	.	.	.	.	.	.	.	.	.	.	.	.	.	.	.
4D	.	.	.	.	.	.	.	.	.	.	.	.	.	.	.	.	2r	2r	.	.	.
.	.	4f	.	.	4a-	.	.	.	.	.	.	.	.	.	.	.	.	.	.	.	.
4BB-	.	.	.	.	.	.	.	.	.	.	.	.	.	.	.	.	.	.	.	.	.
.	.	8f	.	.	8a-	.	.	.	.	.	.	.	.	.	.	.	.	.	.	.	.
*	*	*v	*v	*	*	*	*	*	*	*	*	*	*	*	*	*	*	*	*	*	*
=57	=57	=57	=57	=57	=57	=57	=57	=57	=57	=57	=57	=57	=57	=57	=57	=57	=57	=57	=57	=57
!	!	!	!	!	!	!	!	!	!	!	!	!	!	!	!	!LO:LB:g=original	!	!	!	!
4E-	.	4g	.	(8gL	.	4E-	-bis	4B-	-cem	.	4e-	-cem	4g	-cem	.	4B-	4b-	.	4ee-	4gg
.	.	.	.	8cc)	.	.	.	.	.	.	.	.	.	.	.	.	.	.	.	.
!	!	!	!	!LO:TX:b:t=|:problem	!	!	!	!	!	!	!	!	!	!	!	!	!	!	!	!
4r	.	4r	.	8cc|	.	4r	.	4r	.	.	4r	.	4r	.	.	4r	4r	.	4r	4r
!	!	!	!	!LO:TX:b:t=|:problem	!	!	!	!	!	!	!	!	!	!	!	!	!	!	!	!
.	.	.	.	8ccJ|	.	.	.	.	.	.	.	.	.	.	.	.	.	.	.	.
2r	.	2r	.	(8bnL	.	2r	.	2r	.	.	2r	.	2r	.	.	2r	2r	.	2r	2r
.	.	.	.	8cc)	.	.	.	.	.	.	.	.	.	.	.	.	.	.	.	.
!	!	!	!	!LO:TX:a:t=|:problem	!	!	!	!	!	!	!	!	!	!	!	!	!	!	!	!
.	.	.	.	8cc|	.	.	.	.	.	.	.	.	.	.	.	.	.	.	.	.
!	!	!	!	!LO:TX:a:t=|:problem	!	!	!	!	!	!	!	!	!	!	!	!	!	!	!	!
.	.	.	.	8ccJ|	.	.	.	.	.	.	.	.	.	.	.	.	.	.	.	.
=58	=58	=58	=58	=58	=58	=58	=58	=58	=58	=58	=58	=58	=58	=58	=58	=58	=58	=58	=58	=58
*	*	*^	*	*	*	*	*	*	*	*	*	*	*	*	*	*	*	*	*	*
*	*	*	*	*	*	*	*	*ij	*	*ij	*	*	*	*	*	*	*	*	*	*	*
!LO:LB:g=original	!	!LO:LB:g=original	!LO:LB:g=original	!	!	!	!	!	!	!	!	!	!	!	!	!	!	!LO:TX:t=P:problem=brak taktu	!	!	!
4C	7 5	8g	1c	.	8b-X/	.	1En	no-	1c	pa-	.	1g	Do-	1b-	Do-	.	4cc	1ryy	.	1gg	1bb-
.	.	4g	.	.	4b-/	.	.	.	.	.	.	.	.	.	.	.	.	.	.	.	.
4G	.	.	.	.	.	.	.	.	.	.	.	.	.	.	.	.	4r	.	.	.	.
.	.	4g	.	.	4b-/	.	.	.	.	.	.	.	.	.	.	.	.	.	.	.	.
4En	.	.	.	.	.	.	.	.	.	.	.	.	.	.	.	.	4cc	.	.	.	.
.	.	4g	.	.	4b-/	.	.	.	.	.	.	.	.	.	.	.	.	.	.	.	.
4C	.	.	.	.	.	.	.	.	.	.	.	.	.	.	.	.	4r	.	.	.	.
.	.	8g	.	.	8b-/	.	.	.	.	.	.	.	.	.	.	.	.	.	.	.	.
*	*	*v	*v	*	*	*	*	*	*	*	*	*	*	*	*	*	*	*	*	*	*
=59	=59	=59	=59	=59	=59	=59	=59	=59	=59	=59	=59	=59	=59	=59	=59	=59	=59	=59	=59	=59
!	!	!	!	!	!	!	!	!	!	!	!LO:LB:g=original	!	!LO:LB:g=original	!	!	!	!	!	!	!
4F	.	4f 4a	.	(8aL	.	4F	-bis	4c	-cem	.	4f	-na	4an	-na	.	4cc	4cc	.	4ff	4aan
.	.	.	.	8dd)	.	.	.	.	.	.	.	.	.	.	.	.	.	.	.	.
!	!	!	!	!LO:TX:a:t=|:problem	!	!	!	!	!	!	!	!	!	!	!	!	!	!	!	!
4r	.	4r	.	8dd|	.	4r	.	4r	.	.	4r	.	4r	.	.	4r	4r	.	4r	4r
!	!	!	!	!LO:TX:a:t=|:problem	!	!	!	!	!	!	!	!	!	!	!	!	!	!	!	!
.	.	.	.	8ddJ|	.	.	.	.	.	.	.	.	.	.	.	.	.	.	.	.
2r	.	2r	.	(8cc#XL	.	2r	.	2r	.	.	2r	.	2r	.	.	2r	2r	.	2r	2r
.	.	.	.	8dd)	.	.	.	.	.	.	.	.	.	.	.	.	.	.	.	.
!	!	!	!	!LO:TX:a:t=|:problem	!	!	!	!	!	!	!	!	!	!	!	!	!	!	!	!
.	.	.	.	8dd|	.	.	.	.	.	.	.	.	.	.	.	.	.	.	.	.
!	!	!	!	!LO:TX:a:t=|:problem	!	!	!	!	!	!	!	!	!	!	!	!	!	!	!	!
.	.	.	.	8ddJ|	.	.	.	.	.	.	.	.	.	.	.	.	.	.	.	.
=60	=60	=60	=60	=60	=60	=60	=60	=60	=60	=60	=60	=60	=60	=60	=60	=60	=60	=60	=60	=60
*	*	*^	*	*	*	*	*	*	*	*	*	*	*	*	*	*	*	*	*	*
!	!	!	!	!	!LO:LB:g=original	!	!	!	!	!	!	!	!	!	!	!	!	!LO:LB:g=original	!	!	!LO:LB:g=original
4D	7 #	8a	1d	.	8d 8ccn	.	1F#X	pa-	1d	pa-	.	1a	no-	1cc	no-	.	4d	4dd	.	1aa	1ccc
.	.	4a	.	.	4d 4cc	.	.	.	.	.	.	.	.	.	.	.	.	.	.	.	.
4A	.	.	.	.	.	.	.	.	.	.	.	.	.	.	.	.	4r	4r	.	.	.
.	.	4a	.	.	4d 4cc	.	.	.	.	.	.	.	.	.	.	.	.	.	.	.	.
4F#X	.	.	.	.	.	.	.	.	.	.	.	.	.	.	.	.	4d	4dd	.	.	.
.	.	4a	.	.	4d 4cc	.	.	.	.	.	.	.	.	.	.	.	.	.	.	.	.
4D	.	.	.	.	.	.	.	.	.	.	.	.	.	.	.	.	4r	4r	.	.	.
.	.	8a	.	.	8d 8cc	.	.	.	.	.	.	.	.	.	.	.	.	.	.	.	.
*	*	*v	*v	*	*	*	*	*	*	*	*	*	*	*	*	*	*	*	*	*	*
=61	=61	=61	=61	=61	=61	=61	=61	=61	=61	=61	=61	=61	=61	=61	=61	=61	=61	=61	=61	=61
!	!	!	!	!	!	!	!	!	!	!	!	!	!	!	!	!	!	!	!	!LO:SIC:v:s=4bbn\
4G	.	4G 4g	.	8bnL	.	4G	-cem	4d	-cem	.	4g	-bis	4bn	-bis	.	4d	4dd	.	4gg	4bb-
*	*	*	*	*	*	*	*Xij	*	*Xij	*	*	*	*	*	*	*	*	*	*	*
.	.	.	.	8gg	.	.	.	.	.	.	.	.	.	.	.	.	.	.	.	.
4r	.	4r	.	8gg	.	4r	.	4r	.	.	4r	.	4r	.	.	4r	4r	.	4r	4r
.	.	.	.	8ggJ	.	.	.	.	.	.	.	.	.	.	.	.	.	.	.	.
2r	.	2r	.	8ff#XL	.	2r	.	2r	.	.	2r	.	2r	.	.	2r	2r	.	2r	2r
.	.	.	.	8gg	.	.	.	.	.	.	.	.	.	.	.	.	.	.	.	.
.	.	.	.	8gg	.	.	.	.	.	.	.	.	.	.	.	.	.	.	.	.
.	.	.	.	8ggJ	.	.	.	.	.	.	.	.	.	.	.	.	.	.	.	.
=62	=62	=62	=62	=62	=62	=62	=62	=62	=62	=62	=62	=62	=62	=62	=62	=62	=62	=62	=62	=62
*	*	*tremolo	*	*	*	*	*	*	*	*	*	*	*	*	*	*	*	*	*	*
!	!	!	!LO:DY:a:t=for	!	!	!LO:TX:t=P:problem=brak taktu	!	!LO:LB:g=original	!	!LO:DY:a:t=for	!	!	!	!	!LO:DY:a:t=for:rj	!	!	!	!LO:LB:g=original	!
4BBn	6 5	16gLL	f	4ffn	.	4BBn	Do-	4d	Do-	f	2g	Do-	4ff	Do-	f	0r	0r	.	4ff	1gg
.	.	16g	.	.	.	.	.	.	.	.	.	.	.	.	.	.	.	.	.	.
.	.	16g	.	.	.	.	.	.	.	.	.	.	.	.	.	.	.	.	.	.
.	.	16g	.	.	.	.	.	.	.	.	.	.	.	.	.	.	.	.	.	.
4C	x 6	16g	.	4ee-X	.	4C	-na	4c	-na	.	.	.	4ee-X	-na	.	.	.	.	4ee-	.
.	.	16g	.	.	.	.	.	.	.	.	.	.	.	.	.	.	.	.	.	.
.	.	16g	.	.	.	.	.	.	.	.	.	.	.	.	.	.	.	.	.	.
.	.	16gJJ	.	.	.	.	.	.	.	.	.	.	.	.	.	.	.	.	.	.
4D/	x 6\	16gLL	.	4dd	.	4D/	no-	4Bn	no-	.	2g	-na	4dd	no-	.	.	.	.	4dd	.
.	.	16g	.	.	.	.	.	.	.	.	.	.	.	.	.	.	.	.	.	.
.	.	16g	.	.	.	.	.	.	.	.	.	.	.	.	.	.	.	.	.	.
.	.	16g	.	.	.	.	.	.	.	.	.	.	.	.	.	.	.	.	.	.
4E-X	x 6	16g	.	4cc	.	4E-/	-bis	4c	-bis	.	.	.	4cc	-bis	.	.	.	.	4cc	.
.	.	16g	.	.	.	.	.	.	.	.	.	.	.	.	.	.	.	.	.	.
.	.	16g	.	.	.	.	.	.	.	.	.	.	.	.	.	.	.	.	.	.
.	.	16gJJ	.	.	.	.	.	.	.	.	.	.	.	.	.	.	.	.	.	.
=63	=63	=63	=63	=63	=63	=63	=63	=63	=63	=63	=63	=63	=63	=63	=63	=63	=63	=63	=63	=63
!	!	!	!	!	!	!LO:LB:g=original	!	!	!	!	!	!	!	!	!	!	!	!	!LO:SIC:v:s=4bn\	!
4F	4 2n	16gLL	.	4bn	.	4F\	pa-	4d	pa-	.	4g	no-	4bn	pa-	.	.	.	.	4b-	1gg
.	.	16g	.	.	.	.	.	.	.	.	.	.	.	.	.	.	.	.	.	.
.	.	16g	.	.	.	.	.	.	.	.	.	.	.	.	.	.	.	.	.	.
.	.	16g	.	.	.	.	.	.	.	.	.	.	.	.	.	.	.	.	.	.
4E-	x 6	16g	.	4cc	.	4E-	-cem	4e-	-cem	.	4g	-bis	4cc	-ce(m)	.	.	.	.	4cc	.
.	.	16g	.	.	.	.	.	.	.	.	.	.	.	.	.	.	.	.	.	.
.	.	16g	.	.	.	.	.	.	.	.	.	.	.	.	.	.	.	.	.	.
.	.	16gJJ	.	.	.	.	.	.	.	.	.	.	.	.	.	.	.	.	.	.
4Bn	x 6	16gLL	.	8ddL	.	4Bn	do-	4f	do-	.	2g	pa-	4dd	do-	.	.	.	.	2dd	.
.	.	16g	.	.	.	.	.	.	.	.	.	.	.	.	.	.	.	.	.	.
.	.	16g	.	16ee-L	.	.	.	.	.	.	.	.	.	.	.	.	.	.	.	.
.	.	16g	.	16ffJJ	.	.	.	.	.	.	.	.	.	.	.	.	.	.	.	.
4G	.	16g	.	8ggL	.	4G	-na	4d	-na	.	.	.	8ggL	-na	.	.	.	.	.	.
.	.	16g	.	.	.	.	.	.	.	.	.	.	.	.	.	.	.	.	.	.
.	.	16g	.	8ffJ	.	.	.	.	.	.	.	.	8ffJ	.	.	.	.	.	.	.
.	.	16gJJ	.	.	.	.	.	.	.	.	.	.	.	.	.	.	.	.	.	.
=64	=64	=64	=64	=64	=64	=64	=64	=64	=64	=64	=64	=64	=64	=64	=64	=64	=64	=64	=64	=64
8cL	.	16gLL	.	8ee-L	.	8cL	no-	4c	no-	.	2g	-cem	8ee-L	no-	.	1r	1r	.	8ee-L	1gg
.	.	16g	.	.	.	.	.	.	.	.	.	.	.	.	.	.	.	.	.	.
8dJ	.	16g	.	8ddJ	.	8dJ	.	.	.	.	.	.	8ddJ	.	.	.	.	.	8ddJ	.
.	.	16g	.	.	.	.	.	.	.	.	.	.	.	.	.	.	.	.	.	.
8e-L	x 6	16g	.	4cc	.	4e-X	-bis	4c	-bis	.	.	.	4cc	-bis	.	.	.	.	4cc	.
.	.	16g	.	.	.	.	.	.	.	.	.	.	.	.	.	.	.	.	.	.
16dL	.	16g	.	.	.	.	.	.	.	.	.	.	.	.	.	.	.	.	.	.
16cJJ	.	16gJJ	.	.	.	.	.	.	.	.	.	.	.	.	.	.	.	.	.	.
!LO:LB:g=original	!	!	!	!	!	!	!	!	!	!	!	!	!	!	!	!	!	!	!	!
4Bn	.	16gLL	.	8ddL	.	4Bn	pa-	4d	pa-	.	2g	do-	4dd	pa-	.	.	.	.	2cc	.
.	.	16g	.	.	.	.	.	.	.	.	.	.	.	.	.	.	.	.	.	.
.	.	16g	.	16ee-L	.	.	.	.	.	.	.	.	.	.	.	.	.	.	.	.
.	.	16g	.	16ffJJ	.	.	.	.	.	.	.	.	.	.	.	.	.	.	.	.
4G	x _	16g	.	8ggL	.	4G	-cem	4Bn	-cem	.	.	.	8ggL	-cem	.	.	.	.	.	.
.	x x	16g	.	.	.	.	.	.	.	.	.	.	.	.	.	.	.	.	.	.
.	.	16g	.	8ffJ	.	.	.	.	.	.	.	.	8ffJ	.	.	.	.	.	.	.
.	.	16gJJ	.	.	.	.	.	.	.	.	.	.	.	.	.	.	.	.	.	.
=65	=65	=65	=65	=65	=65	=65	=65	=65	=65	=65	=65	=65	=65	=65	=65	=65	=65	=65	=65	=65
!LO:TX:t=P::problem=zbędna powtórka taktu&colon; A	!	!LO:TX:t=P::problem=zbędna powtórka taktu&colon; A	!	!LO:TX:t=P::problem=zbędna powtórka taktu&colon; A	!	!LO:TX:t=P::problem=zbędna powtórka taktu&colon; A	!	!LO:TX:t=P::problem=zbędna powtórka taktu&colon; A	!	!	!LO:TX:t=P:problem=zbędna powtórka taktu	!	!LO:TX:t=P::problem=zbędna powtórka taktu&colon; A	!	!	!LO:TX:t=P::problem=zbędna powtórka taktu&colon; A	!LO:TX:t=P::problem=zbędna powtórka taktu&colon; A	!	!LO:TX:t=P::problem=zbędna powtórka taktu&colon; A	!LO:TX:t=P::problem=zbędna powtórka taktu&colon; A
1ryy	.	1ryy	.	1ryy	.	1ryy	.	1ryy	.	.	2g	-na	1ryy	.	.	1ryy	1ryy	.	1ryy	1ryy
.	.	.	.	.	.	.	.	.	.	.	2g	no-	.	.	.	.	.	.	.	.
=66	=66	=66	=66	=66	=66	=66	=66	=66	=66	=66	=66	=66	=66	=66	=66	=66	=66	=66	=66	=66
!	!	!	!	!LO:LB:g=original	!	!	!	!	!	!	!	!	!	!	!	!	!	!	!LO:TX:t=P:problem=brak taktu	!
8cL	.	16gLL	.	8ee-L	.	8cL	do-	4c	Do-	.	2g	-bis	8ee-L	do-	.	2r	2r	.	1ryy	2gg
.	.	16g	.	.	.	.	.	.	.	.	.	.	.	.	.	.	.	.	.	.
8dJ	.	16g	.	8ddJ	.	8dJ	.	.	.	.	.	.	8ddJ	.	.	.	.	.	.	.
.	.	16g	.	.	.	.	.	.	.	.	.	.	.	.	.	.	.	.	.	.
16e-LL	x 6\	16g	.	4cc	.	4e-	-na	4c	-na	.	.	.	4cc	-na	.	.	.	.	.	.
16d	.	16g	.	.	.	.	.	.	.	.	.	.	.	.	.	.	.	.	.	.
16c	.	16g	.	.	.	.	.	.	.	.	.	.	.	.	.	.	.	.	.	.
16B-JJ	.	16gJJ	.	.	.	.	.	.	.	.	.	.	.	.	.	.	.	.	.	.
!	!	!	!	!	!	!	!	!	!	!	!	!	!	!	!	!	!	!LO:DY:a:t=for:rj	!	!
4A	x 6	16fLL	.	8ccL	.	4A	no-	4c	no-	.	4f	pa-	4cc	no-	.	2f	2cc	f	.	2ff
.	.	16f	.	.	.	.	.	.	.	.	.	.	.	.	.	.	.	.	.	.
.	.	16f	.	16ddL	.	.	.	.	.	.	.	.	.	.	.	.	.	.	.	.
.	.	16f	.	16ee-JJ	.	.	.	.	.	.	.	.	.	.	.	.	.	.	.	.
!	!	!	!	!	!	!	!	!	!	!	!	!	!LO:LB:g=original	!	!	!	!	!	!	!
4F	x 7	16f	.	8ffL	.	4F	-bis	4A	-bis	.	4f	-cem	8ffL	-bis	.	.	.	.	.	.
.	.	16f	.	.	.	.	.	.	.	.	.	.	.	.	.	.	.	.	.	.
.	.	16f	.	8ee-J	.	.	.	.	.	.	.	.	8ee-J	.	.	.	.	.	.	.
.	.	16fJJ	.	.	.	.	.	.	.	.	.	.	.	.	.	.	.	.	.	.
=67	=67	=67	=67	=67	=67	=67	=67	=67	=67	=67	=67	=67	=67	=67	=67	=67	=67	=67	=67	=67
8B-L	.	16fLL	.	8ddL	.	8B-L	pa-	4B-X	pa-	.	2f	Do-	8ddL	pa-	.	8b-L	8ddL	.	8ddL	1ff
.	.	16f	.	.	.	.	.	.	.	.	.	.	.	.	.	.	.	.	.	.
8cJ	x 6	16f	.	8ccJ	.	8cJ	.	.	.	.	.	.	8ccJ	.	.	8fJ	8ccJ	.	8ccJ	.
.	.	16f	.	.	.	.	.	.	.	.	.	.	.	.	.	.	.	.	.	.
4d	x 6	16f	.	4b-	.	4d	-cem	4B-	-cem	.	.	.	4b-	-cem	.	4d	4b-	.	4b-	.
.	.	16f	.	.	.	.	.	.	.	.	.	.	.	.	.	.	.	.	.	.
.	.	16f	.	.	.	.	.	.	.	.	.	.	.	.	.	.	.	.	.	.
.	.	16fJJ	.	.	.	.	.	.	.	.	.	.	.	.	.	.	.	.	.	.
*	*	*	*	*	*	*	*	*	*ij	*	*	*	*	*ij	*	*	*	*	*	*
!	!	!LO:LB:g=original	!	!	!	!	!	!	!	!	!LO:LB:g=original	!	!	!	!	!	!	!	!	!
4c	x 6	16fLL	.	8cc\L	.	4c	do-	4A	pa-	.	2f	-na	4cc	pa-	.	4f	4cc	.	4cc	.
.	.	16f	.	.	.	.	.	.	.	.	.	.	.	.	.	.	.	.	.	.
.	.	16f	.	8f\	.	.	.	.	.	.	.	.	.	.	.	.	.	.	.	.
.	.	16f	.	.	.	.	.	.	.	.	.	.	.	.	.	.	.	.	.	.
4B-	.	16f	.	8dd\	.	4B-	-na	4B-	-cem	.	.	.	4dd	-cem	.	4b-	4dd	.	4dd	.
*	*	*	*	*	*	*	*	*	*Xij	*	*	*	*	*Xij	*	*	*	*	*	*
.	.	16f	.	.	.	.	.	.	.	.	.	.	.	.	.	.	.	.	.	.
.	.	16f	.	8f\J	.	.	.	.	.	.	.	.	.	.	.	.	.	.	.	.
.	.	16fJJ	.	.	.	.	.	.	.	.	.	.	.	.	.	.	.	.	.	.
=68	=68	=68	=68	=68	=68	=68	=68	=68	=68	=68	=68	=68	=68	=68	=68	=68	=68	=68	=68	=68
*tremolo	*	*	*	*	*	*	*	*	*	*	*	*	*	*	*	*	*	*	*	*
!	!	!	!	!	!	!	!	!LO:LB:g=original	!	!	!	!	!	!	!	!	!	!	!	!
8AL	6 5	16cLL	.	16ee-LL	.	2A	no-	2c	Do-	.	2f	no-	2ee-	Do-	.	1f	1cc	.	1ee-	1ff
.	.	16f	.	16dd	.	.	.	.	.	.	.	.	.	.	.	.	.	.	.	.
8A	.	16c	.	16cc	.	.	.	.	.	.	.	.	.	.	.	.	.	.	.	.
.	.	16f	.	16ddJJ	.	.	.	.	.	.	.	.	.	.	.	.	.	.	.	.
8A	.	16c	.	16ee-LL	.	.	.	.	.	.	.	.	.	.	.	.	.	.	.	.
.	.	16f	.	16dd	.	.	.	.	.	.	.	.	.	.	.	.	.	.	.	.
8AJ	.	16c	.	16cc	.	.	.	.	.	.	.	.	.	.	.	.	.	.	.	.
.	.	16fJJ	.	16ddJJ	.	.	.	.	.	.	.	.	.	.	.	.	.	.	.	.
*	*	*rep	*	*	*	*	*	*	*	*	*	*	*	*	*	*	*	*	*	*
8FL	.	16cLL	.	16ee-LL	.	2F	-bis	2c	-na	.	2f	-bis	2ee-	-na	.	.	.	.	.	.
.	.	16f	.	16dd	.	.	.	.	.	.	.	.	.	.	.	.	.	.	.	.
8F	.	16c	.	16cc	.	.	.	.	.	.	.	.	.	.	.	.	.	.	.	.
.	.	16f	.	16b-JJ	.	.	.	.	.	.	.	.	.	.	.	.	.	.	.	.
8F	.	16c	.	16aLL	.	.	.	.	.	.	.	.	.	.	.	.	.	.	.	.
.	.	16f	.	16g	.	.	.	.	.	.	.	.	.	.	.	.	.	.	.	.
8FJ	.	16c	.	16f	.	.	.	.	.	.	.	.	.	.	.	.	.	.	.	.
.	.	16fJJ	.	16e-JJ	.	.	.	.	.	.	.	.	.	.	.	.	.	.	.	.
*	*	*Xrep	*	*	*	*	*	*	*	*	*	*	*	*	*	*	*	*	*	*
=69	=69	=69	=69	=69	=69	=69	=69	=69	=69	=69	=69	=69	=69	=69	=69	=69	=69	=69	=69	=69
8B-L	.	16dLL	.	16dLL	.	2B-	pa-	2B-	no-	.	2f	pa-	2dd	no-	.	1b-	1dd	.	1dd	1ff
.	.	16f	.	16f	.	.	.	.	.	.	.	.	.	.	.	.	.	.	.	.
8B-	.	16d	.	16g	.	.	.	.	.	.	.	.	.	.	.	.	.	.	.	.
.	.	16f	.	16aJJ	.	.	.	.	.	.	.	.	.	.	.	.	.	.	.	.
8B-	.	16d	.	16b-LL	.	.	.	.	.	.	.	.	.	.	.	.	.	.	.	.
.	.	16f	.	16cc	.	.	.	.	.	.	.	.	.	.	.	.	.	.	.	.
8B-J	.	16d	.	16dd	.	.	.	.	.	.	.	.	.	.	.	.	.	.	.	.
.	.	16fJJ	.	16ee-JJ	.	.	.	.	.	.	.	.	.	.	.	.	.	.	.	.
*	*	*rep	*	*	*	*	*	*	*	*	*	*	*	*	*	*	*	*	*	*
8dL	.	16dLL	.	16ffLL	.	2d	-cem	2B-	-bis	.	2f	-cem	2dd	-bis	.	.	.	.	.	.
.	.	16f	.	16gg	.	.	.	.	.	.	.	.	.	.	.	.	.	.	.	.
8d	.	16d	.	16aa	.	.	.	.	.	.	.	.	.	.	.	.	.	.	.	.
.	.	16f	.	16bb-JJ	.	.	.	.	.	.	.	.	.	.	.	.	.	.	.	.
!	!	!	!	!LO:LB:g=original	!	!	!	!	!	!	!	!	!	!	!	!	!	!	!	!
8d	x 6	16d	.	8ffL	.	.	.	.	.	.	.	.	.	.	.	.	.	.	.	.
.	.	16f	.	.	.	.	.	.	.	.	.	.	.	.	.	.	.	.	.	.
8dJ	.	16d	.	8ffJ	.	.	.	.	.	.	.	.	.	.	.	.	.	.	.	.
.	.	16fJJ	.	.	.	.	.	.	.	.	.	.	.	.	.	.	.	.	.	.
*	*	*Xrep	*	*	*	*	*	*	*	*	*	*	*	*	*	*	*	*	*	*
=70	=70	=70	=70	=70	=70	=70	=70	=70	=70	=70	=70	=70	=70	=70	=70	=70	=70	=70	=70	=70
*	*	*	*	*	*	*	*ij	*	*	*	*	*	*	*	*	*	*	*	*	*
!	!	!	!	!	!	!LO:LB:g=original	!	!	!	!	!	!	!	!	!	!	!	!	!	!
8AL	6 5	16cLL	.	16ee-LL	.	2A	pa-	2c	pa-	.	2f	Do-	2ee-	pa-	.	1f	1cc	.	1ee-	1ff
.	.	16f	.	16dd	.	.	.	.	.	.	.	.	.	.	.	.	.	.	.	.
8A	.	16c	.	16cc	.	.	.	.	.	.	.	.	.	.	.	.	.	.	.	.
.	.	16f	.	16ddJJ	.	.	.	.	.	.	.	.	.	.	.	.	.	.	.	.
8A	.	16c	.	16ee-LL	.	.	.	.	.	.	.	.	.	.	.	.	.	.	.	.
.	.	16f	.	16dd	.	.	.	.	.	.	.	.	.	.	.	.	.	.	.	.
8AJ	.	16c	.	16cc	.	.	.	.	.	.	.	.	.	.	.	.	.	.	.	.
.	.	16fJJ	.	16ddJJ	.	.	.	.	.	.	.	.	.	.	.	.	.	.	.	.
*	*	*rep	*	*	*	*	*	*	*	*	*	*	*	*	*	*	*	*	*	*
8FL	.	16cLL	.	16ee-LL	.	2F	-cem	2c	-cem	.	2f	-na	2ee-	-cem	.	.	.	.	.	.
*	*	*	*	*	*	*	*Xij	*	*	*	*	*	*	*	*	*	*	*	*	*
.	.	16f	.	16dd	.	.	.	.	.	.	.	.	.	.	.	.	.	.	.	.
8F	.	16c	.	16cc	.	.	.	.	.	.	.	.	.	.	.	.	.	.	.	.
.	.	16f	.	16b-JJ	.	.	.	.	.	.	.	.	.	.	.	.	.	.	.	.
8F	.	16c	.	16aLL	.	.	.	.	.	.	.	.	.	.	.	.	.	.	.	.
.	.	16f	.	16g	.	.	.	.	.	.	.	.	.	.	.	.	.	.	.	.
8FJ	.	16c	.	16f	.	.	.	.	.	.	.	.	.	.	.	.	.	.	.	.
.	.	16fJJ	.	16e-JJ	.	.	.	.	.	.	.	.	.	.	.	.	.	.	.	.
*Xtremolo	*	*Xrep	*	*	*	*	*	*	*	*	*	*	*	*	*	*	*	*	*	*
=71	=71	=71	=71	=71	=71	=71	=71	=71	=71	=71	=71	=71	=71	=71	=71	=71	=71	=71	=71	=71
*	*	*Xtremolo	*	*	*	*	*	*	*	*	*	*	*	*ij	*	*	*	*	*	*
!	!	!LO:TX:t=P:problem=mixed beam	!	!LO:TX:t=P:problem=mixed beam	!	!	!	!	!	!	!	!	!	!	!	!	!	!	!	!
4B-	.	8d/L	.	8d/L	.	4B-	Do-	4B-	Do-	.	4f	do-	4dd	pa-	.	4b-	4dd	.	4dd	4ff
.	.	16dd\L	.	16bb-\L	.	.	.	.	.	.	.	.	.	.	.	.	.	.	.	.
.	.	16cc\JJ	.	16aa\JJ	.	.	.	.	.	.	.	.	.	.	.	.	.	.	.	.
4r	.	8ddL	.	8bb-L	.	4B-	-na	4B-	-na	.	4f	-na	4dd	-cem	.	8b-L	8ddL	.	8ddL	4bb-
.	.	8ddJ	.	8bb-J	.	.	.	.	.	.	.	.	.	.	.	8b-J	8ddJ	.	8ddJ	.
16B-LL	8 3	8dd	.	8bb-	.	4B-	no-	4B-	no-	.	4f	no-	4dd	pa-	.	2b-	2dd	.	2dd	2bb-
16c	.	.	.	.	.	.	.	.	.	.	.	.	.	.	.	.	.	.	.	.
16d	.	4dd	.	4bb-	.	.	.	.	.	.	.	.	.	.	.	.	.	.	.	.
16cJJ	.	.	.	.	.	.	.	.	.	.	.	.	.	.	.	.	.	.	.	.
!LO:LB:g=original	!	!	!	!	!	!	!	!	!	!	!	!	!	!	!	!	!	!	!	!
8B-L	.	.	.	.	.	4B-	-bis	4B-	-bis	.	4f	-bis	4dd	-cem	.	.	.	.	.	.
8B-J	.	8dd	.	8bb-	.	.	.	.	.	.	.	.	.	.	.	.	.	.	.	.
=72	=72	=72	=72	=72	=72	=72	=72	=72	=72	=72	=72	=72	=72	=72	=72	=72	=72	=72	=72	=72
4G	5 3	4d 4dd	.	16bb-LL	.	2G	pa-	2B-	pa-	.	2g	pa-	2dd	pa-	.	4b-	4dd	.	4dd	4bb-
.	.	.	.	16ccc	.	.	.	.	.	.	.	.	.	.	.	.	.	.	.	.
.	.	.	.	16ddd	.	.	.	.	.	.	.	.	.	.	.	.	.	.	.	.
.	.	.	.	16cccJJ	.	.	.	.	.	.	.	.	.	.	.	.	.	.	.	.
4G	.	4d 4dd	.	16bb-LL	.	.	.	.	.	.	.	.	.	.	.	4b-	4dd	.	4dd	4bb-
.	.	.	.	16ccc	.	.	.	.	.	.	.	.	.	.	.	.	.	.	.	.
.	.	.	.	16ddd	.	.	.	.	.	.	.	.	.	.	.	.	.	.	.	.
.	.	.	.	16cccJJ	.	.	.	.	.	.	.	.	.	.	.	.	.	.	.	.
4G	.	4d 4dd	.	4bb-	.	4G	-cem	4B-	-cem	.	4g	-cem	4dd	-cem	.	4b-	4dd	.	4dd	4bb-
*	*	*	*	*	*	*	*	*	*	*	*	*	*	*Xij	*	*	*	*	*	*
4r	.	4r	.	4r	.	4r	.	4r	.	.	4r	.	4r	.	.	4r	4r	.	4r	4r
=73	=73	=73	=73	=73	=73	=73	=73	=73	=73	=73	=73	=73	=73	=73	=73	=73	=73	=73	=73	=73
!	!	!	!LO:DY:a:t=p.	!LO:LB:g=original	!	!	!	!	!	!	!	!	!	!	!	!LO:LB:g=original	!	!	!	!LO:LB:g=original
1En	.	2c	p	8r	.	2r	.	2r	.	.	2r	.	2r	.	.	00r	00r	.	00r	00r
!	!	!	!	!	!LO:DY:a:t=p.:rj	!	!	!	!	!	!	!	!	!	!	!	!	!	!	!
.	.	.	.	8ggL	p	.	.	.	.	.	.	.	.	.	.	.	.	.	.	.
.	.	.	.	8een	.	.	.	.	.	.	.	.	.	.	.	.	.	.	.	.
.	.	.	.	8ccJ	.	.	.	.	.	.	.	.	.	.	.	.	.	.	.	.
!	!	!	!	!	!	!	!	!	!	!	!	!	!	!	!LO:DY:a:t=p.:rj	!	!	!	!	!
.	.	2c	.	2b-	.	2En	do-	2c	Do	.	2g	do-	2b-X	Do-	p	.	.	.	.	.
=74	=74	=74	=74	=74	=74	=74	=74	=74	=74	=74	=74	=74	=74	=74	=74	=74	=74	=74	=74	=74
!	!	!	!	!	!	!	!	!LO:SIC:v:l:s=-na	!	!	!	!	!LO:LB:g=original	!	!	!	!	!	!	!
1F	.	2c	.	8b-L	.	1F	-na	1c	no-	.	1f	-na	1a	-na	.	.	.	.	.	.
.	.	.	.	8a	.	.	.	.	.	.	.	.	.	.	.	.	.	.	.	.
.	.	.	.	8dd	.	.	.	.	.	.	.	.	.	.	.	.	.	.	.	.
.	.	.	.	8ccJ	.	.	.	.	.	.	.	.	.	.	.	.	.	.	.	.
.	.	2c	.	8b-L	.	.	.	.	.	.	.	.	.	.	.	.	.	.	.	.
.	.	.	.	8a	.	.	.	.	.	.	.	.	.	.	.	.	.	.	.	.
.	.	.	.	8g	.	.	.	.	.	.	.	.	.	.	.	.	.	.	.	.
.	.	.	.	8fJ	.	.	.	.	.	.	.	.	.	.	.	.	.	.	.	.
=75	=75	=75	=75	=75	=75	=75	=75	=75	=75	=75	=75	=75	=75	=75	=75	=75	=75	=75	=75	=75
!	!	!LO:LB:g=original	!	!	!	!	!	!LO:SIC:v:l:s=no-	!	!	!	!	!	!	!	!	!	!	!	!
2G	x 6	2c	.	8fL	.	2G	no-	1c	-bis	.	1en	no-	1b-	no-	.	.	.	.	.	.
!	!	!	!	!LO:SIC:v:s=8en/	!	!	!	!	!	!	!	!	!	!	!	!	!	!	!	!
.	.	.	.	8e-	.	.	.	.	.	.	.	.	.	.	.	.	.	.	.	.
!	!	!	!	!LO:SIC:v:s=8e/	!	!	!	!	!	!	!	!	!	!	!	!	!	!	!	!
.	.	.	.	8e-	.	.	.	.	.	.	.	.	.	.	.	.	.	.	.	.
!	!	!	!	!LO:SIC:v:s=8e/J	!	!	!	!	!	!	!	!	!	!	!	!	!	!	!	!
.	.	.	.	8e-J	.	.	.	.	.	.	.	.	.	.	.	.	.	.	.	.
!	!	!	!	!LO:SIC:v:s=2e/	!	!	!	!	!	!	!	!	!	!	!	!	!	!	!	!
2C	x 7	8cL	.	2e-	.	2BB-	.	.	.	.	.	.	.	.	.	.	.	.	.	.
.	.	8B-	.	.	.	.	.	.	.	.	.	.	.	.	.	.	.	.	.	.
.	.	8B-	.	.	.	.	.	.	.	.	.	.	.	.	.	.	.	.	.	.
.	.	8B-J	.	.	.	.	.	.	.	.	.	.	.	.	.	.	.	.	.	.
=76	=76	=76	=76	=76	=76	=76	=76	=76	=76	=76	=76	=76	=76	=76	=76	=76	=76	=76	=76	=76
!	!	!	!	!	!	!	!	!LO:LB:g=original	!	!	!	!	!	!	!	!	!	!	!	!
4F	.	4A	.	4f	.	4F	-bis	4c	bis	.	4f	-bis	4a	-bis	.	.	.	.	.	.
4FF	.	4A	.	4f	.	4r	.	4r	.	.	4r	.	4r	.	.	.	.	.	.	.
4F	.	4A	.	4f	.	2r	.	2r	.	.	2r	.	2r	.	.	.	.	.	.	.
4r	.	4r	.	4r	.	.	.	.	.	.	.	.	.	.	.	.	.	.	.	.
=77	=77	=77	=77	=77	=77	=77	=77	=77	=77	=77	=77	=77	=77	=77	=77	=77	=77	=77	=77	=77
!	!	!	!	!	!	!	!	!	!	!	!	!	!	!	!	!	!	!	!LO:LB:g=original	!
!	!	!	!	!	!LO:DY:a:t=pp&colon;	!	!	!	!	!	!	!	!	!	!	!	!	!	!LO:TX:a:t=Solo	!
00r	.	4B-	.	4B-	pp	00r	.	00r	.	.	00r	.	00r	.	.	00r	00r	.	4dd	4ff
.	.	4r	.	4r	.	.	.	.	.	.	.	.	.	.	.	.	.	.	8ddL	8bb-L
.	.	.	.	.	.	.	.	.	.	.	.	.	.	.	.	.	.	.	8ee-J	8ggJ
.	.	2r	.	2r	.	.	.	.	.	.	.	.	.	.	.	.	.	.	4dd	4ff
.	.	.	.	.	.	.	.	.	.	.	.	.	.	.	.	.	.	.	4dd	4ff
=78	=78	=78	=78	=78	=78	=78	=78	=78	=78	=78	=78	=78	=78	=78	=78	=78	=78	=78	=78	=78
.	.	4r	.	4r	.	.	.	.	.	.	.	.	.	.	.	.	.	.	4.dd	4.ff
.	.	4f	.	4f	.	.	.	.	.	.	.	.	.	.	.	.	.	.	.	.
.	.	.	.	.	.	.	.	.	.	.	.	.	.	.	.	.	.	.	8cc	8ee-
.	.	4B-	.	4B-	.	.	.	.	.	.	.	.	.	.	.	.	.	.	4b-	4dd
.	.	4r	.	4r	.	.	.	.	.	.	.	.	.	.	.	.	.	.	8ddL	8bb-L
.	.	.	.	.	.	.	.	.	.	.	.	.	.	.	.	.	.	.	8ee-J	8ggJ
=79	=79	=79	=79	=79	=79	=79	=79	=79	=79	=79	=79	=79	=79	=79	=79	=79	=79	=79	=79	=79
!	!	!	!	!LO:LB:g=original	!	!	!	!	!	!	!	!	!	!	!	!	!	!	!	!
.	.	4r	.	4r	.	.	.	.	.	.	.	.	.	.	.	.	.	.	4.dd	4.ff
.	.	4f	.	4f	.	.	.	.	.	.	.	.	.	.	.	.	.	.	.	.
.	.	.	.	.	.	.	.	.	.	.	.	.	.	.	.	.	.	.	8cc	8ee-
.	.	4B-	.	4B-	.	.	.	.	.	.	.	.	.	.	.	.	.	.	4b-	4dd
.	.	4f	.	4f	.	.	.	.	.	.	.	.	.	.	.	.	.	.	4a	4cc
=80	=80	=80	=80	=80	=80	=80	=80	=80	=80	=80	=80	=80	=80	=80	=80	=80	=80	=80	=80	=80
.	.	4b-/	.	4b-/	.	.	.	.	.	.	.	.	.	.	.	.	.	.	8b-L	8ddL
.	.	.	.	.	.	.	.	.	.	.	.	.	.	.	.	.	.	.	8ddJ	8bb-J
.	.	8gL	.	8gL	.	.	.	.	.	.	.	.	.	.	.	.	.	.	8ee-L	8ggL
!	!	!	!	!	!	!	!	!	!	!	!	!	!	!	!	!	!	!	!LO:SIC:v:s=8cc\J	!
.	.	8e-J	.	8e-J	.	.	.	.	.	.	.	.	.	.	.	.	.	.	8ddJ	8ee-J
.	.	4f	.	4f	.	.	.	.	.	.	.	.	.	.	.	.	.	.	4b-	4dd
.	.	4f	.	4f	.	.	.	.	.	.	.	.	.	.	.	.	.	.	4a	4cc
=81	=81	=81	=81	=81	=81	=81	=81	=81	=81	=81	=81	=81	=81	=81	=81	=81	=81	=81	=81	=81
1r	.	4B-	.	4B-	.	0r	.	0r	.	.	0r	.	0r	.	.	0r	0r	.	4b-	4b-
.	.	4r	.	16b-LL	.	.	.	.	.	.	.	.	.	.	.	.	.	.	4r	4r
.	.	.	.	16a	.	.	.	.	.	.	.	.	.	.	.	.	.	.	.	.
.	.	.	.	16b-	.	.	.	.	.	.	.	.	.	.	.	.	.	.	.	.
.	.	.	.	16ccJJ	.	.	.	.	.	.	.	.	.	.	.	.	.	.	.	.
.	.	2r	.	8b-L	.	.	.	.	.	.	.	.	.	.	.	.	.	.	2r	2r
.	.	.	.	8b-	.	.	.	.	.	.	.	.	.	.	.	.	.	.	.	.
.	.	.	.	8b-	.	.	.	.	.	.	.	.	.	.	.	.	.	.	.	.
.	.	.	.	8b-J	.	.	.	.	.	.	.	.	.	.	.	.	.	.	.	.
=82	=82	=82	=82	=82	=82	=82	=82	=82	=82	=82	=82	=82	=82	=82	=82	=82	=82	=82	=82	=82
!LO:PB:g=original	!	!LO:LB:g=original	!LO:DY:a:t=p.	!	!LO:HP:a:t=Cres	!	!	!	!	!	!	!	!	!	!	!	!	!	!	!
4BB-	.	8fL	p	1b-	<	.	.	.	.	.	.	.	.	.	.	.	.	.	1b-	1b-
.	.	8a-X	.	.	.	.	.	.	.	.	.	.	.	.	.	.	.	.	.	.
4r	.	8a-	.	.	.	.	.	.	.	.	.	.	.	.	.	.	.	.	.	.
.	.	8fJ	.	.	.	.	.	.	.	.	.	.	.	.	.	.	.	.	.	.
4E-	.	8gL	.	.	.	.	.	.	.	.	.	.	.	.	.	.	.	.	.	.
.	.	8b-	.	.	.	.	.	.	.	.	.	.	.	.	.	.	.	.	.	.
4r	.	8b-	.	.	.	.	.	.	.	.	.	.	.	.	.	.	.	.	.	.
.	.	8gJ	.	.	.	.	.	.	.	.	.	.	.	.	.	.	.	.	.	.
=83	=83	=83	=83	=83	=83	=83	=83	=83	=83	=83	=83	=83	=83	=83	=83	=83	=83	=83	=83	=83
*	*	*tremolo	*	*	*	*	*	*	*	*	*	*	*	*	*	*	*	*	*	*
!LO:TX:t=P:problem=mixed beam	!	!LO:SIC:v:s=16f/LL	!LO:DY:a:t=for:rj	!	!	!	!	!	!	!	!	!	!	!	!	!	!	!LO:DY:a:t=for	!	!
8B-\L	7 5	16gLL	f	16b-LL	.	2D	Do-	2f	Do-	.	2a-X	Do-	2b-	Do-	.	4B-	4b-	f	1ff	2aa-X
!	!	!LO:SIC:v:s=16b-/:t=lub 16dd/	!	!LO:SIC:v:s=16aa-\	!	!	!	!	!	!	!	!	!	!	!	!	!	!	!	!
.	.	16cc	.	16aa	.	.	.	.	.	.	.	.	.	.	.	.	.	.	.	.
!	!	!LO:SIC:v:s=16f/	!	!	!	!	!	!	!	!	!	!	!	!	!	!	!	!	!	!
8BB-/	.	16g	.	16b-	.	.	.	.	.	.	.	.	.	.	.	.	.	.	.	.
!	!	!LO:SIC:v:s=16b-/:t=lub 16dd/	!	!LO:SIC:v:s=16aa-\JJ	!	!	!	!	!	!	!	!	!	!	!	!	!	!	!	!
.	.	16cc	.	16aaJJ	.	.	.	.	.	.	.	.	.	.	.	.	.	.	.	.
*	*	*	*	*rep	*	*	*	*	*	*	*	*	*	*	*	*	*	*	*	*
!	!	!LO:SIC:v:s=16f/	!	!	!	!	!	!	!	!	!	!	!	!	!	!	!	!	!	!
8D/	.	16g	.	16b-LL	.	.	.	.	.	.	.	.	.	.	.	8B-L	8b-L	.	.	.
!	!	!LO:SIC:v:s=16b-/:t=lub 16dd/	!	!LO:SIC:v:s=16aa-\	!	!	!	!	!	!	!	!	!	!	!	!	!	!	!	!
.	.	16cc	.	16aa	.	.	.	.	.	.	.	.	.	.	.	.	.	.	.	.
!	!	!LO:SIC:v:s=16f/	!	!	!	!	!	!	!	!	!	!	!	!	!	!	!	!	!	!
8F/J	.	16g	.	16b-	.	.	.	.	.	.	.	.	.	.	.	8B-J	8b-J	.	.	.
!	!	!LO:SIC:v:s=16b-/JJ:t=lub 16dd/JJ	!	!LO:SIC:v:s=16aa-\JJ	!	!	!	!	!	!	!	!	!	!	!	!	!	!	!	!
.	.	16ccJJ	.	16aaJJ	.	.	.	.	.	.	.	.	.	.	.	.	.	.	.	.
*	*	*	*	*Xrep	*	*	*	*	*	*	*	*	*	*	*	*	*	*	*	*
*	*	*	*	*rep	*	*	*	*	*	*	*	*	*	*	*	*	*	*	*	*
!	!	!LO:SIC:v:s=16f/LL	!	!	!	!	!	!	!	!	!	!	!	!	!	!	!	!	!	!
8B-L	.	16gLL	.	16b-LL	.	2D	-na	2f	-na	.	2a-	-na	2b-	-na	.	4B-	4b-	.	.	2aa-
!	!	!	!	!LO:SIC:v:s=16aa-\	!	!	!	!	!	!	!	!	!	!	!	!	!	!	!	!
.	x _	16b-	.	16aa	.	.	.	.	.	.	.	.	.	.	.	.	.	.	.	.
!	!	!LO:SIC:v:s=16f/	!	!	!	!	!	!	!	!	!	!	!	!	!	!	!	!	!	!
8F	.	16g	.	16b-	.	.	.	.	.	.	.	.	.	.	.	.	.	.	.	.
!	!	!	!	!LO:SIC:v:s=16aa-\JJ	!	!	!	!	!	!	!	!	!	!	!	!	!	!	!	!
.	.	16b-	.	16aaJJ	.	.	.	.	.	.	.	.	.	.	.	.	.	.	.	.
*	*	*	*	*Xrep	*	*	*	*	*	*	*	*	*	*	*	*	*	*	*	*
*	*	*	*	*rep	*	*	*	*	*	*	*	*	*	*	*	*	*	*	*	*
!	!	!LO:SIC:v:s=16f/	!	!	!	!	!	!	!	!	!	!	!	!	!	!	!	!	!	!
8D	x x	16g	.	16b-LL	.	.	.	.	.	.	.	.	.	.	.	4B-	4b-	.	.	.
!	!	!	!	!LO:SIC:v:s=16aa-\	!	!	!	!	!	!	!	!	!	!	!	!	!	!	!	!
.	.	16b-	.	16aa	.	.	.	.	.	.	.	.	.	.	.	.	.	.	.	.
!	!	!LO:SIC:v:s=16f/	!	!	!	!	!	!	!	!	!	!	!	!	!	!	!	!	!	!
8BB-J	.	16g	.	16b-	.	.	.	.	.	.	.	.	.	.	.	.	.	.	.	.
!	!	!	!	!LO:SIC:v:s=16aa-\JJ	!	!	!	!	!	!	!	!	!	!	!	!	!	!	!	!
.	.	16b-JJ	.	16aaJJ	.	.	.	.	.	.	.	.	.	.	.	.	.	.	.	.
*	*	*	*	*Xrep	*	*	*	*	*	*	*	*	*	*	*	*	*	*	*	*
=84	=84	=84	=84	=84	=84	=84	=84	=84	=84	=84	=84	=84	=84	=84	=84	=84	=84	=84	=84	=84
*	*	*rep	*	*	*	*	*	*	*	*	*	*	*	*	*	*	*	*	*	*
!	!	!	!	!	!	!LO:LB:g=original	!	!	!	!	!	!	!	!	!	!	!	!	!	!LO:LB:g=original
8E-L	.	16gLL	.	16b-LL	.	2E-	no-	2e-	no-	.	2g	no-	2b-	no-	.	1B-	1b-	.	1ee-	1gg
.	.	16b-	.	16gg	.	.	.	.	.	.	.	.	.	.	.	.	.	.	.	.
8E-	.	16g	.	16b-	.	.	.	.	.	.	.	.	.	.	.	.	.	.	.	.
.	.	16b-	.	16ggJJ	.	.	.	.	.	.	.	.	.	.	.	.	.	.	.	.
*	*	*	*	*rep	*	*	*	*	*	*	*	*	*	*	*	*	*	*	*	*
8G	.	16g	.	16b-LL	.	.	.	.	.	.	.	.	.	.	.	.	.	.	.	.
.	.	16b-	.	16gg	.	.	.	.	.	.	.	.	.	.	.	.	.	.	.	.
8B-J	.	16g	.	16b-	.	.	.	.	.	.	.	.	.	.	.	.	.	.	.	.
.	.	16b-JJ	.	16ggJJ	.	.	.	.	.	.	.	.	.	.	.	.	.	.	.	.
*	*	*Xrep	*	*Xrep	*	*	*	*	*	*	*	*	*	*	*	*	*	*	*	*
*	*	*rep	*	*rep	*	*	*	*	*	*	*	*	*	*	*	*	*	*	*	*
8e-L	.	16gLL	.	16b-LL	.	2E-	-bis	2e-	-bis	.	2g	-bis	2b-	-bis	.	.	.	.	.	.
.	.	16b-	.	16gg	.	.	.	.	.	.	.	.	.	.	.	.	.	.	.	.
8B-	.	16g	.	16b-	.	.	.	.	.	.	.	.	.	.	.	.	.	.	.	.
.	.	16b-	.	16ggJJ	.	.	.	.	.	.	.	.	.	.	.	.	.	.	.	.
*	*	*	*	*Xrep	*	*	*	*	*	*	*	*	*	*	*	*	*	*	*	*
*	*	*	*	*rep	*	*	*	*	*	*	*	*	*	*	*	*	*	*	*	*
8G	.	16g	.	16b-LL	.	.	.	.	.	.	.	.	.	.	.	.	.	.	.	.
.	.	16b-	.	16gg	.	.	.	.	.	.	.	.	.	.	.	.	.	.	.	.
8E-J	.	16g	.	16b-	.	.	.	.	.	.	.	.	.	.	.	.	.	.	.	.
.	.	16b-JJ	.	16ggJJ	.	.	.	.	.	.	.	.	.	.	.	.	.	.	.	.
*	*	*Xrep	*	*Xrep	*	*	*	*	*	*	*	*	*	*	*	*	*	*	*	*
=85	=85	=85	=85	=85	=85	=85	=85	=85	=85	=85	=85	=85	=85	=85	=85	=85	=85	=85	=85	=85
!LO:TX:t=P:problem=mixed beam	!	!	!	!LO:LB:g=original	!	!	!	!	!	!	!	!	!	!	!	!	!	!	!	!LO:SIC:v:s=1aa-
8B-\L	7 3-	16fLL 16b-	.	16b-LL	.	1D	pa-	1f	pa-	.	1a	pa-	1b-	pa-	.	4B-	4b-	.	1ff	1aa
!	!	!	!	!LO:SIC:v:s=16aa-\	!	!	!	!	!	!	!	!	!	!	!	!	!	!	!	!
.	.	16dd	.	16aa	.	.	.	.	.	.	.	.	.	.	.	.	.	.	.	.
!	!	!	!	!	!	!	!	!	!	!	!	!	!	!	!	!	!	!	!	!
8BB-/	.	16f 16b-	.	16b-	.	.	.	.	.	.	.	.	.	.	.	.	.	.	.	.
!	!	!	!	!LO:SIC:v:s=16aa-\JJ	!	!	!	!	!	!	!	!	!	!	!	!	!	!	!	!
.	.	16dd	.	16aaJJ	.	.	.	.	.	.	.	.	.	.	.	.	.	.	.	.
*	*	*	*	*rep	*	*	*	*	*	*	*	*	*	*	*	*	*	*	*	*
!	!	!	!	!	!	!	!	!	!	!	!	!	!	!	!	!	!	!	!	!
8D/	.	16f 16b-	.	16b-LL	.	.	.	.	.	.	.	.	.	.	.	8B-L	8b-L	.	.	.
!	!	!	!	!LO:SIC:v:s=16aa-\	!	!	!	!	!	!	!	!	!	!	!	!	!	!	!	!
.	.	16dd	.	16aa	.	.	.	.	.	.	.	.	.	.	.	.	.	.	.	.
!	!	!	!	!	!	!	!	!	!	!	!	!	!	!	!	!	!	!	!	!
8F/J	.	16f 16b-	.	16b-	.	.	.	.	.	.	.	.	.	.	.	8B-J	8b-J	.	.	.
!	!	!	!	!LO:SIC:v:s=16aa-\JJ	!	!	!	!	!	!	!	!	!	!	!	!	!	!	!	!
.	.	16ddJJ	.	16aaJJ	.	.	.	.	.	.	.	.	.	.	.	.	.	.	.	.
*	*	*	*	*Xrep	*	*	*	*	*	*	*	*	*	*	*	*	*	*	*	*
*	*	*	*	*rep	*	*	*	*	*	*	*	*	*	*	*	*	*	*	*	*
!	!	!LO:SIC:s=16f/LL	!	!	!	!	!	!	!	!	!	!	!	!	!	!	!LO:LB:g=original	!	!	!
8B-L	.	16gLL	.	16b-LL	.	.	.	.	.	.	.	.	.	.	.	4B-	4b-	.	.	.
!	!	!	!	!LO:SIC:v:s=16aa-\	!	!	!	!	!	!	!	!	!	!	!	!	!	!	!	!
.	x _	16b-	.	16aa	.	.	.	.	.	.	.	.	.	.	.	.	.	.	.	.
!	!	!LO:SIC:v:s=16f/	!	!	!	!	!	!	!	!	!	!	!	!	!	!	!	!	!	!
8F	.	16g	.	16b-	.	.	.	.	.	.	.	.	.	.	.	.	.	.	.	.
!	!	!	!	!LO:SIC:v:s=16aa-\JJ	!	!	!	!	!	!	!	!	!	!	!	!	!	!	!	!
.	x x	16b-	.	16aaJJ	.	.	.	.	.	.	.	.	.	.	.	.	.	.	.	.
*	*	*	*	*Xrep	*	*	*	*	*	*	*	*	*	*	*	*	*	*	*	*
*	*	*	*	*rep	*	*	*	*	*	*	*	*	*	*	*	*	*	*	*	*
!	!	!LO:SIC:v:s=16f/	!	!	!	!	!	!	!	!	!	!	!	!	!	!	!	!	!	!
8D	.	16g	.	16b-LL	.	.	.	.	.	.	.	.	.	.	.	4B-	4b-	.	.	.
!	!	!	!	!LO:SIC:v:s=16aa-\	!	!	!	!	!	!	!	!	!	!	!	!	!	!	!	!
.	.	16b-	.	16aa	.	.	.	.	.	.	.	.	.	.	.	.	.	.	.	.
!	!	!LO:SIC:v:s=16f/	!	!	!	!	!	!	!	!	!	!	!	!	!	!	!	!	!	!
8BB-J	.	16g	.	16b-	.	.	.	.	.	.	.	.	.	.	.	.	.	.	.	.
!	!	!	!	!LO:SIC:v:s=16aa-\JJ	!	!	!	!	!	!	!	!	!	!	!	!	!	!	!	!
.	.	16b-JJ	.	16aaJJ	.	.	.	.	.	.	.	.	.	.	.	.	.	.	.	.
*	*	*	*	*Xrep	*	*	*	*	*	*	*	*	*	*	*	*	*	*	*	*
=86	=86	=86	=86	=86	=86	=86	=86	=86	=86	=86	=86	=86	=86	=86	=86	=86	=86	=86	=86	=86
8E-L	.	8b-L	.	16ggLL	.	4E-	-cem	4e-	-cem	.	4g	-cem	4b-	-cem	.	4B-	4b-	.	4ee-	4gg
.	.	.	.	16gg	.	.	.	.	.	.	.	.	.	.	.	.	.	.	.	.
8E-	.	8b-	.	16gg	.	.	.	.	.	.	.	.	.	.	.	.	.	.	.	.
.	.	.	.	16ggJJ	.	.	.	.	.	.	.	.	.	.	.	.	.	.	.	.
8D	x 6	8b-	.	16ffLL	.	(4D	do-	2c	do-	.	4f	do-	2b-	do-	.	4r	4r	.	4b-	4ff
.	.	.	.	16ff	.	.	.	.	.	.	.	.	.	.	.	.	.	.	.	.
8DJ	.	8b-J	.	16ff	.	.	.	.	.	.	.	.	.	.	.	.	.	.	.	.
.	.	.	.	16ffJJ	.	.	.	.	.	.	.	.	.	.	.	.	.	.	.	.
*	*	*Xtremolo	*	*	*	*	*	*	*	*	*	*	*	*	*	*	*	*	*	*
!LO:LB:g=original	!	!	!	!	!	!	!	!	!	!	!	!	!	!	!	!	!	!	!	!
8E-L	.	16b-LL	.	16ggLL	.	4E-)	.	.	.	.	4g	-na	.	.	.	4r	4r	.	4b-	4gg
.	.	16b-	.	16gg	.	.	.	.	.	.	.	.	.	.	.	.	.	.	.	.
8E-	.	16b-	.	16gg	.	.	.	.	.	.	.	.	.	.	.	.	.	.	.	.
.	.	16b-JJ	.	16ggJJ	.	.	.	.	.	.	.	.	.	.	.	.	.	.	.	.
8C	x 6	16ee-LL	.	16aanLL	.	4C\	-na	4c	-na	.	4an	no-	4ee-	-na	.	4f	4cc	.	4ee-	4aan
.	.	16ee-	.	16aa	.	.	.	.	.	.	.	.	.	.	.	.	.	.	.	.
8CJ	.	16ee-	.	16aa	.	.	.	.	.	.	.	.	.	.	.	.	.	.	.	.
!	!	!LO:TX:b:t=Verte Cito	!	!	!	!	!	!	!	!	!	!	!	!	!	!	!	!	!	!
.	.	16ee-JJ	.	16aaJJ	.	.	.	.	.	.	.	.	.	.	.	.	.	.	.	.
=87	=87	=87	=87	=87	=87	=87	=87	=87	=87	=87	=87	=87	=87	=87	=87	=87	=87	=87	=87	=87
!	!	!	!	!	!	!	!	!	!	!	!	!	!	!	!	!	!	!	!LO:LB:g=original	!
!LO:TX:t=P:problem=zbędny takt cl 2	!	!LO:TX:t=P:problem=zbędny takt cl 2	!	!LO:TX:t=P:problem=zbędny takt cl 2	!	!LO:TX:t=P:problem=zbędny takt cl 2	!	!LO:TX:t=P:problem=zbędny takt cl 2	!	!	!LO:TX:t=P:problem=zbędny takt cl 2	!	!LO:TX:t=P:problem=zbędny takt cl 2	!	!	!LO:TX:t=P:problem=zbędny takt cl 2	!LO:TX:t=P:problem=zbędny takt cl 2	!	!LO:TX:t=P:problem=zbędny takt	!LO:TX:t=P:problem=zbędny takt cl 2
1ryy	.	1ryy	.	1ryy	.	1ryy	.	1ryy	.	.	1ryy	.	1ryy	.	.	1ryy	1ryy	.	4dd	1ryy
.	.	.	.	.	.	.	.	.	.	.	.	.	.	.	.	.	.	.	4r	.
.	.	.	.	.	.	.	.	.	.	.	.	.	.	.	.	.	.	.	2r	.
=88	=88	=88	=88	=88	=88	=88	=88	=88	=88	=88	=88	=88	=88	=88	=88	=88	=88	=88	=88	=88
4BB-	.	16ddLL	.	4d 4b- 4bb-	.	4BB-	no-	4d	no-	.	4b-	-bis	4dd	no-	.	4b-	4dd	.	4dd	4bb-
.	.	16dd	.	.	.	.	.	.	.	.	.	.	.	.	.	.	.	.	.	.
.	.	16dd	.	.	.	.	.	.	.	.	.	.	.	.	.	.	.	.	.	.
.	.	16ddJJ	.	.	.	.	.	.	.	.	.	.	.	.	.	.	.	.	.	.
.	.	.	.	16qqaa/	.	.	.	.	.	.	.	.	.	.	.	.	.	.	.	.
4E-	x 6	16b-LL	.	8ggL	.	4E-	-bis	4c	-bis	.	4g	pa-	4ee-	-bis	.	4b-	4ee-	.	4r	4r
.	.	16b-	.	.	.	.	.	.	.	.	.	.	.	.	.	.	.	.	.	.
.	.	16b-	.	16ffL	.	.	.	.	.	.	.	.	.	.	.	.	.	.	.	.
.	.	16b-JJ	.	16ee-JJ	.	.	.	.	.	.	.	.	.	.	.	.	.	.	.	.
4F	x 4	16b-LL	.	4dd	.	2F	pa-	4B-	pa-	.	2f	.	4dd	pa-	.	4b-	4dd	.	4dd	4bb-
.	.	16b-	.	.	.	.	.	.	.	.	.	.	.	.	.	.	.	.	.	.
.	.	16b-	.	.	.	.	.	.	.	.	.	.	.	.	.	.	.	.	.	.
.	.	16b-JJ	.	.	.	.	.	.	.	.	.	.	.	.	.	.	.	.	.	.
4FF	x 3	16aLL	.	4cc	.	.	.	4A	-ce(m)	.	.	.	4cc	-ce(m)	.	4f	4cc	.	4cc	4aa
.	.	16a	.	.	.	.	.	.	.	.	.	.	.	.	.	.	.	.	.	.
.	.	16a	.	.	.	.	.	.	.	.	.	.	.	.	.	.	.	.	.	.
.	.	16aJJ	.	.	.	.	.	.	.	.	.	.	.	.	.	.	.	.	.	.
=89	=89	=89	=89	=89	=89	=89	=89	=89	=89	=89	=89	=89	=89	=89	=89	=89	=89	=89	=89	=89
*	*	*tremolo	*	*	*	*	*	*	*ij	*	*	*	*	*	*	*	*	*	*	*
8BB-L	.	16b-LL	.	16b-LL	.	4B-	-cem	4B-	pa-	.	4f	-cem	4dd	do-	.	4d	4b-	.	4dd	4bb-
.	.	16b-	.	16b-	.	.	.	.	.	.	.	.	.	.	.	.	.	.	.	.
8BB-	.	16b-	.	16b-	.	.	.	.	.	.	.	.	.	.	.	.	.	.	.	.
.	.	16b-JJ	.	16b-JJ	.	.	.	.	.	.	.	.	.	.	.	.	.	.	.	.
!	!	!LO:SIC:v:s=16b-\JJ	!	!	!	!	!	!LO:SIC:v:s=4e-\	!	!	!	!	!	!	!	!	!	!	!	!
8E-	x 3	16ccLL	.	16ggLL	.	4E-	do-	4d	-cem	.	4g	.	2b-	.	.	4B-	4b-	.	2b-	4gg
*	*	*	*	*	*	*	*	*	*Xij	*	*	*	*	*	*	*	*	*	*	*
!	!	!LO:SIC:v:s=16b-\	!	!	!	!	!	!	!	!	!	!	!	!	!	!	!	!	!	!
.	.	16cc	.	16gg	.	.	.	.	.	.	.	.	.	.	.	.	.	.	.	.
!	!	!LO:SIC:v:s=16b-\	!	!	!	!	!	!	!	!	!	!	!	!	!	!	!	!	!	!
8E-J	.	16cc	.	16gg	.	.	.	.	.	.	.	.	.	.	.	.	.	.	.	.
!	!	!LO:SIC:v:s=16b-\	!	!	!	!	!	!	!	!	!	!	!	!	!	!	!	!	!	!
.	.	16cc	.	16ggJJ	.	.	.	.	.	.	.	.	.	.	.	.	.	.	.	.
!	!	!LO:SIC:v:s=16b-\	!	!	!	!	!	!	!	!	!	!	!	!	!	!	!	!	!	!
8DL	x 6	16cc	.	16ffLL	.	4D	-na	4f	Do-	.	4f	do-	.	.	.	4B-	4b-	.	.	4ff
!	!	!LO:SIC:v:s=16b-\	!	!	!	!	!	!	!	!	!	!	!	!	!	!	!	!	!	!
.	.	16cc	.	16ff	.	.	.	.	.	.	.	.	.	.	.	.	.	.	.	.
!	!	!LO:SIC:v:s=16b-\	!	!	!	!	!	!	!	!	!	!	!	!	!	!	!	!	!	!
8D	.	16cc	.	16ff	.	.	.	.	.	.	.	.	.	.	.	.	.	.	.	.
!	!	!LO:SIC:v:s=16b-\LL	!	!	!	!	!	!	!	!	!	!	!	!	!	!	!	!	!	!
.	.	16ccJJ	.	16ffJJ	.	.	.	.	.	.	.	.	.	.	.	.	.	.	.	.
!	!	!	!	!LO:LB:g=original	!	!	!	!	!	!	!	!	!	!	!	!	!	!	!	!
8E-	4 2	16ccLL	.	16aanLL	.	4E-	no-	4d	-na	.	4f	-na	4a	-na	.	4f	4cc	.	4cc	4aa
.	.	16cc	.	16aa	.	.	.	.	.	.	.	.	.	.	.	.	.	.	.	.
8E-J	.	16cc	.	16aa	.	.	.	.	.	.	.	.	.	.	.	.	.	.	.	.
.	.	16ccJJ	.	16aaJJ	.	.	.	.	.	.	.	.	.	.	.	.	.	.	.	.
*	*	*Xtremolo	*	*	*	*	*	*	*	*	*	*	*	*	*	*	*	*	*	*
=90	=90	=90	=90	=90	=90	=90	=90	=90	=90	=90	=90	=90	=90	=90	=90	=90	=90	=90	=90	=90
!	!	!	!	!	!	!	!	!LO:LB:g=original	!	!	!	!	!LO:LB:g=original	!	!	!	!	!	!	!
8DL	x 6	16ddLL	.	16bb-LL	.	4D	-bis	2d	no-	.	4f	no-	2.b-	no-	.	2b-	2dd	.	2dd	2.bb-
.	.	16dd	.	16bb-	.	.	.	.	.	.	.	.	.	.	.	.	.	.	.	.
8D	.	16dd	.	16bb-	.	.	.	.	.	.	.	.	.	.	.	.	.	.	.	.
.	.	16ddJJ	.	16bb-JJ	.	.	.	.	.	.	.	.	.	.	.	.	.	.	.	.
*	*	*	*	*rep	*	*	*	*	*	*	*	*	*	*	*	*	*	*	*	*
8G	.	16ddLL	.	16bb-LL	.	4G	.	.	.	.	4g	-bis	.	.	.	.	.	.	.	.
.	.	16dd	.	16bb-	.	.	.	.	.	.	.	.	.	.	.	.	.	.	.	.
8GJ	.	16dd	.	16bb-	.	.	.	.	.	.	.	.	.	.	.	.	.	.	.	.
.	.	16ddJJ	.	16bb-JJ	.	.	.	.	.	.	.	.	.	.	.	.	.	.	.	.
*	*	*	*	*Xrep	*	*	*	*	*	*	*	*	*	*	*	*	*	*	*	*
*	*	*	*	*rep	*	*	*	*	*	*	*	*	*	*	*	*	*	*	*	*
8E-L	6 5	16ccLL	.	16bb-LL	.	4E-	pa-	2c	-bis	.	4g	no-	.	.	.	4r	2cc	.	2cc	.
.	.	16cc	.	16bb-	.	.	.	.	.	.	.	.	.	.	.	.	.	.	.	.
8E-	.	16cc	.	16bb-	.	.	.	.	.	.	.	.	.	.	.	.	.	.	.	.
.	.	16ccJJ	.	16bb-JJ	.	.	.	.	.	.	.	.	.	.	.	.	.	.	.	.
*	*	*	*	*Xrep	*	*	*	*	*	*	*	*	*	*	*	*	*	*	*	*
*	*	*	*	*	*	*	*	*	*	*	*	*	*	*	*	*	*	*	*	*
8F	.	16ccLL	.	16aaLL	.	4F	-cem	.	.	.	4f	.	4a	-bis	.	4f	.	.	.	4aa
.	.	16cc	.	16aa	.	.	.	.	.	.	.	.	.	.	.	.	.	.	.	.
8FJ	.	16cc	.	16aa	.	.	.	.	.	.	.	.	.	.	.	.	.	.	.	.
.	.	16ccJJ	.	16aaJJ	.	.	.	.	.	.	.	.	.	.	.	.	.	.	.	.
*	*	*	*	*	*	*	*	*	*	*	*	*	*	*	*	*	*	*	*	*
=91	=91	=91	=91	=91	=91	=91	=91	=91	=91	=91	=91	=91	=91	=91	=91	=91	=91	=91	=91	=91
!	!	!	!	!	!	!	!	!	!	!	!LO:LB:g=original	!	!	!	!	!	!	!	!	!
4B-	.	4f 4dd	.	4dd 4bb-	.	4B-	pa-	4d	pa-	.	4f	-bis	4b-	pa-	.	4b-	4dd	.	4dd	4bb-
4F	.	4f 4cc	.	4cc 4aa	.	4F	.	4c	.	.	4f	pa-	4a	.	.	4f	4cc	.	4cc	4aa
4BB-	.	4f 4dd	.	4dd 4bb-	.	4BB-	-cem.	4d	-cem	.	4f	-cem	4b-	-cem	.	4d	4b-	.	4dd	4bb-
!	!	!	!	!	!	!	!	!	!	!	!	!	!	!	!	!	!	!	!	!
4r	.	4r	.	4r	.	4r	.	4r	.	.	4r	.	4r	.	.	4r	4r	.	4r	4r
!	!	!LO:TX:b:t=Finis.	!	!LO:TX:b:t=Finis.	!	!	!	!	!	!	!	!	!	!	!	!LO:TX:b:t=Finis.	!LO:TX:b:t=Finis	!	!LO:TX:b:t=Finis	!LO:TX:b:t=Finis
==	==	==	==	==	==	==	==	==	==	==	==	==	==	==	==	==	==	==	==	==
*-	*-	*-	*-	*-	*-	*-	*-	*-	*-	*-	*-	*-	*-	*-	*-	*-	*-	*-	*-	*-
!!!system-decoration: [(s1,s2)][(s3,s4)][(s5,s6,s7,s8)][(s9,s10)](s11)
!!!RDF**kern: | = vertical stroke
!!!ENC: Andrzej Gręziak
!!!END: 2021-11-23
!!!ENC: Krzysztof Stępień
!!!END: 2021-12-03
